!!!!SEGMENT: pl-cz--iii-33--007_bolehovsky-josef--missa-pastoralis-in-d-agnus-dei.krn
!!!cenid: 18xx:678
!!!COM: Bolehovský, Josef
!!!COM-rismid: pe30000404
!!!CDT: 1743-1811
!!!CNT: Czech
!!!OPR: Missa Pastoralis in D
!!!OTL: Agnus Dei
!!!OMV: 007
!!!PDT: 1821
!!!AGN: Sacred; Mass
!!!SMS-siglum: PL-CZ
!!!SMS-shelfmark: III-33
!!!SMS-shelfwork: 001-007 M
!!!SMS-variant:
!!!SMS-altvar:
!!!NIFC-rismid: 300237609
!!!URL-scan: http://repozytorium.nifc.pl/skany/pl-cz-nut--iii-33
!!!ONB-nifc: UWAGA: części Mszy: Kyrie, Christe, Gloria, Credo, Sanctus, Benedictus, Agnus Dei
!!!key:
**kern	**fba	**dynam	**kern	**dynam	**kern	**kern	**text	**dynam	**kern	**text	**kern	**text	**kern	**text	**dynam	**kern	**kern	**kern	**kern	**kern
*part12	*	*part12	*part11	*part11	*part10	*part9	*part9	*part9	*part8	*part8	*part7	*part7	*part6	*part6	*part6	*part5	*part4	*part3	*part2	*part1
*staff12	*	*	*staff11	*	*staff10	*staff9	*staff9	*	*staff8	*staff8	*staff7	*staff7	*staff6	*staff6	*	*staff5	*staff4	*staff3	*staff2	*staff1
*Iorgan	*	*	*Ivioln	*	*Ivioln	*Iempty	*	*	*Itenor	*	*Ialto	*	*Ivox	*	*	*Itimpa	*Iempty	*Icor	*Iclars	*Iclars
*I"Organo	*	*	*I"Violino IIdo	*	*I"Violino 1mo	*I"Baſso.	*	*	*I"Tenore	*	*I"Alto	*	*I"Canto	*	*	*I"Timpano in D.	*I"Clarino Prinzipale in D.	*I"Corni due in D.	*I"Clarinetto 2do	*I"Clarinetto 1mo
*I'org	*	*	*I'vl 2	*	*I'vl 1	*I'B	*	*	*I'T	*	*I'A	*	*I'S	*	*	*I'timp	*I'clar	*I'cor	*I'cl 2	*I'cl 1
*clefF4	*	*	*clefG2	*	*clefG2	*clefF4	*	*	*clefC4	*	*clefC3	*	*clefC1	*	*	*clefF4	*clefG2	*clefG2	*clefG2	*clefG2
*	*	*	*	*	*	*	*	*	*	*	*	*	*	*	*	*	*ITrd-1c-2	*ITrd6c10	*	*
*k[f#]	*	*	*k[f#]	*	*k[f#]	*k[f#]	*	*	*k[f#]	*	*k[f#]	*	*k[f#]	*	*	*k[f#]	*k[f#]	*k[f#]	*k[f#]	*k[f#]
*G:	*	*	*G:	*	*G:	*G:	*	*	*G:	*	*G:	*	*G:	*	*	*G:	*G:	*G:	*G:	*G:
*M3/4	*	*	*M3/4	*	*M3/4	*M3/4	*	*	*M3/4	*	*M3/4	*	*M3/4	*	*	*M3/4	*M3/4	*M3/4	*M3/4	*M3/4
=1	=1	=1	=1	=1	=1	=1	=1	=1	=1	=1	=1	=1	=1	=1	=1	=1	=1	=1	=1	=1
*2\right	*	*	*2\right	*	*2\right	*2\right	*	*	*2\right	*	*2\right	*	*2\right	*	*	*	*	*	*	*
*tremolo	*	*	*tremolo	*	*tremolo	*	*	*	*	*	*	*	*	*	*	*	*	*	*	*
!	!	!	!LO:TX:a:t=Andante	!	!LO:SIC:o:s:=:v:podłużne staccato kilkukrotnie wpisane	!	!	!	!	!	!	!	!	!	!	!	!	!	!	!
!LO:TX:a:t=and(an)te	!	!	!	!	!LO:TX:a:t=and(an)te	!LO:TX:a:t=And(an)te	!	!	!LO:TX:a:t=anda&colon;(nte)	!	!	!	!LO:TX:a:t=andante	!	!	!LO:TX:a:t=Tacet	!LO:TX:a:t=Agnus Tacet	!LO:TX:a:t=Agnus Tacet	!LO:TX:a:t=Tacet	!LO:TX:a:t=Tacet
8G\L	5 3	.	8b\L	.	8dd\L	2G\	A-	.	2d\	A-	2b\	A-	2dd\	A-	.	2.ryy	2.ryy	2.ryy	2.ryy	2.ryy
8G\	.	.	8b\	.	8dd\	.	.	.	.	.	.	.	.	.	.	.	.	.	.	.
8G\	.	.	8b\	.	8dd\	.	.	.	.	.	.	.	.	.	.	.	.	.	.	.
8G\	.	.	8b\	.	8dd\	.	.	.	.	.	.	.	.	.	.	.	.	.	.	.
8G\	.	.	8b\	.	8dd\	4G\	-gnus	.	4d\	-gnus	4b\	-gnus	4dd\	-gnus	.	.	.	.	.	.
8G\J	.	.	8b\J	.	8dd\J	.	.	.	.	.	.	.	.	.	.	.	.	.	.	.
=2	=2	=2	=2	=2	=2	=2	=2	=2	=2	=2	=2	=2	=2	=2	=2	=2	=2	=2	=2	=2
!	!	!	!	!	!	!	!	!	!	!	!	!	!LO:N:vis=16	!	!	!	!	!	!	!
8G\L	5 2	.	8b/L	.	(8dd\L	4G\	D.	.	4d\	D.	(8b\L	D.	8dd\L	D.	.	2.ryy	2.ryy	2.ryy	2.ryy	2.ryy
!	!	!	!	!	!	!	!	!	!	!	!	!	!LO:N:vis=16	!	!	!	!	!	!	!
8G\	4 1	.	8a/J	.	8cc\J)	.	.	.	.	.	8a\J)	.	8cc\J	.	.	.	.	.	.	.
8G\	.	.	4a/	.	4cc`\	4G\	-i	.	4d\	-i	4a\	-i	4cc\	-i	.	.	.	.	.	.
8G\	.	.	.	.	.	.	.	.	.	.	.	.	.	.	.	.	.	.	.	.
8G\	.	.	4r	.	4r	4r	.	.	4r	.	4r	.	4r	.	.	.	.	.	.	.
8G\J	.	.	.	.	.	.	.	.	.	.	.	.	.	.	.	.	.	.	.	.
=3	=3	=3	=3	=3	=3	=3	=3	=3	=3	=3	=3	=3	=3	=3	=3	=3	=3	=3	=3	=3
*	*	*	*	*	*	*	*ij	*	*	*ij	*	*ij	*	*ij	*	*	*	*	*	*
!	!	!	!	!	!LO:SIC:o:s:=:v:podłużne staccato kilkukrotnie wpisane	!	!	!	!	!	!	!	!	!	!	!	!	!	!	!
8F#\L	5 3	.	8a/L	.	8cc\L	2F#\	A-	.	2d\	A-	2a\	A-	2cc\	A-	.	2.ryy	2.ryy	2.ryy	2.ryy	2.ryy
8F#\	.	.	8a/	.	8cc\	.	.	.	.	.	.	.	.	.	.	.	.	.	.	.
8F#\	.	.	8a/	.	8cc\	.	.	.	.	.	.	.	.	.	.	.	.	.	.	.
8F#\	.	.	8a/	.	8cc\	.	.	.	.	.	.	.	.	.	.	.	.	.	.	.
8F#\	.	.	8a/	.	8cc\	4F#\	-gnus	.	4d\	-gnus	4a\	-gnus	4cc\	-gnus	.	.	.	.	.	.
8F#\J	.	.	8a/J	.	8cc\J	.	.	.	.	.	.	.	.	.	.	.	.	.	.	.
*	*	*	*	*	*Xtremolo	*	*	*	*	*	*	*	*	*	*	*	*	*	*	*
=4	=4	=4	=4	=4	=4	=4	=4	=4	=4	=4	=4	=4	=4	=4	=4	=4	=4	=4	=4	=4
8G\L	4 2	.	8a/L	.	(8cc\L	4G\	D.	.	4d\	D.	8a\L	D.	8cc\L	D.	.	2.ryy	2.ryy	2.ryy	2.ryy	2.ryy
8G\	.	.	8g/J	.	8b\J)	.	.	.	.	.	8g\J	.	8b\J	.	.	.	.	.	.	.
8G\	.	.	8g/L	.	4b\	4G\	-i	.	4d\	-i	4g\	-i	4b\	-i	.	.	.	.	.	.
8G\	3 1	.	8d/	.	.	.	.	.	.	.	.	.	.	.	.	.	.	.	.	.
8G\	.	.	8d/	.	8r	8r	.	.	8r	.	8r	.	8r	.	.	.	.	.	.	.
*	*	*	*	*	*	*	*Xij	*	*	*Xij	*	*Xij	*	*Xij	*	*	*	*	*	*
8G\J	.	.	8d/J	.	8b\	8G\	qui	.	8d\	qui	8g\	qui	8b\	qui	.	.	.	.	.	.
=5	=5	=5	=5	=5	=5	=5	=5	=5	=5	=5	=5	=5	=5	=5	=5	=5	=5	=5	=5	=5
8C/L	6	.	8e/L	.	16a/LL	4C/	tol-	.	4c\	tol-	4e\	tol-	4a\	tol-	.	2.ryy	2.ryy	2.ryy	2.ryy	2.ryy
.	.	.	.	.	16g#X/	.	.	.	.	.	.	.	.	.	.	.	.	.	.	.
8C/	.	.	8e/	.	16b/	.	.	.	.	.	.	.	.	.	.	.	.	.	.	.
.	.	.	.	.	16a/JJ	.	.	.	.	.	.	.	.	.	.	.	.	.	.	.
8C/	.	.	8e/	.	16cc/LL	4C/	-lis	.	4c\	-lis	4e\	-lis	4a\	-lis	.	.	.	.	.	.
.	.	.	.	.	16b/	.	.	.	.	.	.	.	.	.	.	.	.	.	.	.
8C/	.	.	8e/	.	16dd/	.	.	.	.	.	.	.	.	.	.	.	.	.	.	.
.	.	.	.	.	16cc/JJ	.	.	.	.	.	.	.	.	.	.	.	.	.	.	.
8C/	.	.	8e/	.	16ee\LL	4C/	pec-	.	4c\	pec-	4e\	pec-	4a\	pec-	.	.	.	.	.	.
.	.	.	.	.	16dd\	.	.	.	.	.	.	.	.	.	.	.	.	.	.	.
8C/J	.	.	8e/J	.	16cc\	.	.	.	.	.	.	.	.	.	.	.	.	.	.	.
.	.	.	.	.	16b\JJ	.	.	.	.	.	.	.	.	.	.	.	.	.	.	.
=6	=6	=6	=6	=6	=6	=6	=6	=6	=6	=6	=6	=6	=6	=6	=6	=6	=6	=6	=6	=6
8C/L	_	.	8e/L	.	16a/LL	4C/	-ca-	.	4c\	-ca-	4e\	-ca-	4a\	-ca-	.	2.ryy	2.ryy	2.ryy	2.ryy	2.ryy
.	.	.	.	.	16g#X/	.	.	.	.	.	.	.	.	.	.	.	.	.	.	.
8C/	.	.	8e/	.	16b/	.	.	.	.	.	.	.	.	.	.	.	.	.	.	.
.	.	.	.	.	16a/JJ	.	.	.	.	.	.	.	.	.	.	.	.	.	.	.
8C/	.	.	8e/	.	16cc/LL	4C/	-ta	.	4c\	-ta	4e\	-ta	4a\	-ta	.	.	.	.	.	.
.	.	.	.	.	16b/	.	.	.	.	.	.	.	.	.	.	.	.	.	.	.
8C/	.	.	8e/	.	16dd/	.	.	.	.	.	.	.	.	.	.	.	.	.	.	.
.	.	.	.	.	16cc/JJ	.	.	.	.	.	.	.	.	.	.	.	.	.	.	.
8C/	.	.	8e/	.	16ee\LL	8r	.	.	8r	.	8r	.	8r	.	.	.	.	.	.	.
.	.	.	.	.	16dd\	.	.	.	.	.	.	.	.	.	.	.	.	.	.	.
8C/J	.	.	8e/J	.	16cc\	8C/	pec-	.	8c\	pec-	8e\	pec-	8a\	pec-	.	.	.	.	.	.
.	.	.	.	.	16b\JJ	.	.	.	.	.	.	.	.	.	.	.	.	.	.	.
!	!	!	!	!	!	!LO:LB:g=original	!	!	!	!	!LO:LB:g=original	!	!LO:LB:g=original	!	!	!	!	!	!	!
=7	=7	=7	=7	=7	=7	=7	=7	=7	=7	=7	=7	=7	=7	=7	=7	=7	=7	=7	=7	=7
2C/	_	.	8e/L	.	16a/LL	2C/	-ca-	.	2c\	-ca-	2e\	-ca-	2a\	-ca-	.	2.ryy	2.ryy	2.ryy	2.ryy	2.ryy
!	!	!	!	!	!LO:SIC:s:=:v:6g#	!	!	!	!	!	!	!	!	!	!	!	!	!	!	!
.	.	.	.	.	16g/	.	.	.	.	.	.	.	.	.	.	.	.	.	.	.
.	.	.	8e/	.	16b/	.	.	.	.	.	.	.	.	.	.	.	.	.	.	.
.	.	.	.	.	16a/JJ	.	.	.	.	.	.	.	.	.	.	.	.	.	.	.
!	!	!	!	!	!LO:LB:g=original	!	!	!	!	!	!	!	!	!	!	!	!	!	!	!
.	.	.	8e/	.	16cc\LL	.	.	.	.	.	.	.	.	.	.	.	.	.	.	.
.	.	.	.	.	16b\	.	.	.	.	.	.	.	.	.	.	.	.	.	.	.
.	.	.	8e/	.	16dd\	.	.	.	.	.	.	.	.	.	.	.	.	.	.	.
.	.	.	.	.	16cc\JJ	.	.	.	.	.	.	.	.	.	.	.	.	.	.	.
*Xtremolo	*	*	*	*	*	*	*	*	*	*	*	*	*	*	*	*	*	*	*	*
8C#X/L	.	.	8e/	.	16ee\LL	4C#X/	-ta	.	4c#X\	-ta	4e\	-ta	4g\	-ta	.	.	.	.	.	.
.	.	.	.	.	16cc\	.	.	.	.	.	.	.	.	.	.	.	.	.	.	.
8C#/J	.	.	8e/J	.	16a\	.	.	.	.	.	.	.	.	.	.	.	.	.	.	.
.	.	.	.	.	16g\JJ	.	.	.	.	.	.	.	.	.	.	.	.	.	.	.
*	*	*	*Xtremolo	*	*	*	*	*	*	*	*	*	*	*	*	*	*	*	*	*
=8	=8	=8	=8	=8	=8	=8	=8	=8	=8	=8	=8	=8	=8	=8	=8	=8	=8	=8	=8	=8
.	.	.	.	.	8qqg/	.	.	.	.	.	.	.	.	.	.	.	.	.	.	.
4D\	4	.	4A/	.	8f#/L	4D/	mun-	.	(8A/L	mun-	4d\	mun-	8f#/L	mun-	.	2.ryy	2.ryy	2.ryy	2.ryy	2.ryy
.	.	.	.	.	16e/L	.	.	.	16G/L	.	.	.	16e/L	.	.	.	.	.	.	.
.	.	.	.	.	16d/JJ	.	.	.	16F#/JJ)	.	.	.	16d/JJ	.	.	.	.	.	.	.
4D\	3	.	4A/	.	4d/	4D/	-di	.	4F#/	-di	4d\	-di	4d/	-di	.	.	.	.	.	.
4r	.	.	4r	.	4r	4r	.	.	4r	.	4r	.	4r	.	.	.	.	.	.	.
=9	=9	=9	=9	=9	=9	=9	=9	=9	=9	=9	=9	=9	=9	=9	=9	=9	=9	=9	=9	=9
*	*	*	*^	*	*	*	*	*	*	*	*	*	*	*	*	*	*	*	*	*
!	!	!	!	!	!LO:DY:a	!	!	!	!LO:DY:a	!	!	!	!	!	!	!	!	!	!	!	!
8Cn/L	4 2	.	2.a/	2.f#\	p	16r	2Cn/	mi-	p	2A\	mi-	2d\	mi-	2f#/	mi-	.	2.ryy	2.ryy	2.ryy	2.ryy	2.ryy
.	.	.	.	.	.	16d/LL	.	.	.	.	.	.	.	.	.	.	.	.	.	.	.
!	!	!	!	!	!	!LO:SIC:o:s:=:v:dopisany krzyżyk	!	!	!	!	!	!	!	!	!	!	!	!	!	!	!
8Cn/	.	.	.	.	.	16c/	.	.	.	.	.	.	.	.	.	.	.	.	.	.	.
.	.	.	.	.	.	16d/JJ	.	.	.	.	.	.	.	.	.	.	.	.	.	.	.
8Cn/	.	.	.	.	.	16r	.	.	.	.	.	.	.	.	.	.	.	.	.	.	.
.	.	.	.	.	.	16dd\LL	.	.	.	.	.	.	.	.	.	.	.	.	.	.	.
8Cn/	.	.	.	.	.	16cc\	.	.	.	.	.	.	.	.	.	.	.	.	.	.	.
.	.	.	.	.	.	16dd\JJ	.	.	.	.	.	.	.	.	.	.	.	.	.	.	.
8Cn/	.	.	.	.	.	16ff#\LL	4C/	-s.	.	4A\	-s.	4d\	-s.	4f#/	-s.	.	.	.	.	.	.
.	.	.	.	.	.	16dd\	.	.	.	.	.	.	.	.	.	.	.	.	.	.	.
8Cn/J	.	.	.	.	.	16aa\	.	.	.	.	.	.	.	.	.	.	.	.	.	.	.
.	.	.	.	.	.	16ff#\JJ	.	.	.	.	.	.	.	.	.	.	.	.	.	.	.
*	*	*	*v	*v	*	*	*	*	*	*	*	*	*	*	*	*	*	*	*	*	*
!LO:LB:g=original	!	!	!	!	!	!	!	!	!LO:LB:g=original	!	!	!	!	!	!	!	!	!	!	!
=10	=10	=10	=10	=10	=10	=10	=10	=10	=10	=10	=10	=10	=10	=10	=10	=10	=10	=10	=10	=10
!	!	!	!	!	!	!	!	!	!LO:SIC:o:s:=:v:ucięta strona	!	!	!	!	!	!	!	!	!	!	!
8BB/L	6	.	2.g/	.	16r	2BB/	.	.	2ryy	.	2d\	-r.	2g\	-r.	.	2.ryy	2.ryy	2.ryy	2.ryy	2.ryy
.	.	.	.	.	16d/LL	.	.	.	.	.	.	.	.	.	.	.	.	.	.	.
!	!	!	!	!	!LO:SIC:o:s:=:v:dopisany krzyżyk	!	!	!	!	!	!	!	!	!	!	!	!	!	!	!
8BB/	.	.	.	.	16c/	.	.	.	.	.	.	.	.	.	.	.	.	.	.	.
.	.	.	.	.	16d/JJ	.	.	.	.	.	.	.	.	.	.	.	.	.	.	.
8BB/	.	.	.	.	16r	.	.	.	.	.	.	.	.	.	.	.	.	.	.	.
.	.	.	.	.	16dd\LL	.	.	.	.	.	.	.	.	.	.	.	.	.	.	.
8BB/	.	.	.	.	16cc\	.	.	.	.	.	.	.	.	.	.	.	.	.	.	.
.	.	.	.	.	16dd\JJ	.	.	.	.	.	.	.	.	.	.	.	.	.	.	.
8BB/	.	.	.	.	16gg\LL	4BB/	-re	.	4B\	-re	4d\	-re	4g\	-re	.	.	.	.	.	.
.	.	.	.	.	16dd\	.	.	.	.	.	.	.	.	.	.	.	.	.	.	.
8BB/J	.	.	.	.	16bb\	.	.	.	.	.	.	.	.	.	.	.	.	.	.	.
.	.	.	.	.	16gg\JJ	.	.	.	.	.	.	.	.	.	.	.	.	.	.	.
=11	=11	=11	=11	=11	=11	=11	=11	=11	=11	=11	=11	=11	=11	=11	=11	=11	=11	=11	=11	=11
*	*	*	*^	*	*	*	*	*	*	*	*	*	*	*	*	*	*	*	*	*
8C/L	4 2	.	2.a/	2.d\	.	16r	2.C/	no-	.	2.A\	no-	2.d\	no-	2.f#/	no-	.	2.ryy	2.ryy	2.ryy	2.ryy	2.ryy
.	.	.	.	.	.	16d/LL	.	.	.	.	.	.	.	.	.	.	.	.	.	.	.
8C/	.	.	.	.	.	16c/	.	.	.	.	.	.	.	.	.	.	.	.	.	.	.
.	.	.	.	.	.	16d/JJ	.	.	.	.	.	.	.	.	.	.	.	.	.	.	.
8C/	.	.	.	.	.	16r	.	.	.	.	.	.	.	.	.	.	.	.	.	.	.
.	.	.	.	.	.	16dd\LL	.	.	.	.	.	.	.	.	.	.	.	.	.	.	.
8C/	.	.	.	.	.	16cc\	.	.	.	.	.	.	.	.	.	.	.	.	.	.	.
.	.	.	.	.	.	16dd\JJ	.	.	.	.	.	.	.	.	.	.	.	.	.	.	.
8C/	.	.	.	.	.	16ff#\LL	.	.	.	.	.	.	.	.	.	.	.	.	.	.	.
.	.	.	.	.	.	16dd\	.	.	.	.	.	.	.	.	.	.	.	.	.	.	.
8C/J	.	.	.	.	.	16aa\	.	.	.	.	.	.	.	.	.	.	.	.	.	.	.
.	.	.	.	.	.	16ff#\JJ	.	.	.	.	.	.	.	.	.	.	.	.	.	.	.
*	*	*	*v	*v	*	*	*	*	*	*	*	*	*	*	*	*	*	*	*	*	*
!	!	!	!LO:LB:g=original	!	!	!	!	!	!	!	!	!	!	!	!	!	!	!	!	!
=12	=12	=12	=12	=12	=12	=12	=12	=12	=12	=12	=12	=12	=12	=12	=12	=12	=12	=12	=12	=12
4BB/	6	.	8g'/L	.	8gg\L|	4BB/	-bis	.	4B\	-bis	4d\	-bis	4g\	-bis	.	2.ryy	2.ryy	2.ryy	2.ryy	2.ryy
.	.	.	8g'/J	.	8b\|	.	.	.	.	.	.	.	.	.	.	.	.	.	.	.
4r	.	.	8a'/L	.	8cc\|	4r	.	.	4r	.	4r	.	4r	.	.	.	.	.	.	.
.	.	.	8b'/	.	8dd\|	.	.	.	.	.	.	.	.	.	.	.	.	.	.	.
4r	.	.	8cc'/	.	8ee\|	4r	.	.	4r	.	4r	.	4r	.	.	.	.	.	.	.
.	.	.	8dd'/J	.	8ff#\J|	.	.	.	.	.	.	.	.	.	.	.	.	.	.	.
!	!	!	!	!	!LO:LB:g=original	!	!	!	!	!	!	!	!	!	!	!	!	!	!	!
=13	=13	=13	=13	=13	=13	=13	=13	=13	=13	=13	=13	=13	=13	=13	=13	=13	=13	=13	=13	=13
!LO:TX:a:t=1	!	!	!	!	!	!LO:TX:b:t=1	!	!	!LO:TX:b:t=1	!	!LO:TX:a:t=1	!	!LO:TX:b:t=1	!	!	!	!	!	!	!
2.r	.	.	8ee\L	.	8gg\L	2.r	.	.	2.r	.	2.r	.	2.r	.	.	2.ryy	2.ryy	2.ryy	2.ryy	2.ryy
.	.	.	8ff#\	.	8aa\	.	.	.	.	.	.	.	.	.	.	.	.	.	.	.
.	.	.	8gg\	.	8bb\	.	.	.	.	.	.	.	.	.	.	.	.	.	.	.
.	.	.	8aa\J	.	8ccc\J	.	.	.	.	.	.	.	.	.	.	.	.	.	.	.
.	.	.	8bb\	.	8ddd\	.	.	.	.	.	.	.	.	.	.	.	.	.	.	.
.	.	.	8r	.	8r	.	.	.	.	.	.	.	.	.	.	.	.	.	.	.
=14	=14	=14	=14	=14	=14	=14	=14	=14	=14	=14	=14	=14	=14	=14	=14	=14	=14	=14	=14	=14
*	*	*	*	*	*	*	*	*	*	*ij	*	*	*	*	*	*	*	*	*	*
!	!	!	!	!	!	!	!	!	!	!	!	!	!	!	!LO:DY:a	!	!	!	!	!
4C/	6 5	.	16r	.	16r	4C/	no-	.	(4c\	no-	(4e\	no-	(4a\	no-	f	2.ryy	2.ryy	2.ryy	2.ryy	2.ryy
.	.	.	16c/LL	.	(16a/LL	.	.	.	.	.	.	.	.	.	.	.	.	.	.	.
.	.	.	16e/	.	16cc/	.	.	.	.	.	.	.	.	.	.	.	.	.	.	.
.	.	.	16c/JJ	.	16a/JJ)	.	.	.	.	.	.	.	.	.	.	.	.	.	.	.
4D/	4	.	16r	.	16r	2D/	.	.	4B\	.	2d\)	.	4g\)	.	.	.	.	.	.	.
.	.	.	16B/LL	.	16g/LL	.	.	.	.	.	.	.	.	.	.	.	.	.	.	.
.	.	.	16d/	.	16b/	.	.	.	.	.	.	.	.	.	.	.	.	.	.	.
.	.	.	16B/JJ	.	16g/JJ	.	.	.	.	.	.	.	.	.	.	.	.	.	.	.
4D/	3	.	16r	.	16r	.	.	.	4A\)	.	.	.	4f#\	.	.	.	.	.	.	.
.	.	.	16A/LL	.	16f#/LL	.	.	.	.	.	.	.	.	.	.	.	.	.	.	.
.	.	.	16c/	.	16a/	.	.	.	.	.	.	.	.	.	.	.	.	.	.	.
.	.	.	16A/JJ	.	16f#/JJ	.	.	.	.	.	.	.	.	.	.	.	.	.	.	.
=15	=15	=15	=15	=15	=15	=15	=15	=15	=15	=15	=15	=15	=15	=15	=15	=15	=15	=15	=15	=15
!LO:TX:a:t=P:problem:mixed beam	!	!	!	!	!	!	!	!	!	!	!	!	!	!	!	!	!	!	!	!
8GG/L|	.	.	4B/	.	4g/	4GG/	-bis	.	4B\	-bis	4d\	-bis	4g\	-bis	.	2.ryy	2.ryy	2.ryy	2.ryy	2.ryy
8B\|	.	.	.	.	.	.	.	.	.	.	.	.	.	.	.	.	.	.	.	.
8A\|	.	.	4r	.	4r	4r	.	.	4r	.	4r	.	4r	.	.	.	.	.	.	.
8G\|	.	.	.	.	.	.	.	.	.	.	.	.	.	.	.	.	.	.	.	.
8F#\|	.	.	4r	.	4r	4r	.	.	4r	.	4r	.	4r	.	.	.	.	.	.	.
8E\J|	.	.	.	.	.	.	.	.	.	.	.	.	.	.	.	.	.	.	.	.
*	*	*	*	*	*	*	*	*	*	*Xij	*	*	*	*	*	*	*	*	*	*
=16	=16	=16	=16	=16	=16	=16	=16	=16	=16	=16	=16	=16	=16	=16	=16	=16	=16	=16	=16	=16
*	*	*	*tremolo	*	*tremolo	*	*	*	*	*	*	*	*	*	*	*	*	*	*	*
!LO:SIC:o:s:=:v:p=po&colon;	!	!	!	!	!	!	!	!	!	!	!	!	!	!	!	!	!	!	!	!
!LO:TX:a:t=Solo	!	!	!	!	!	!LO:TX:a:t=solo	!	!	!LO:TX:a:t=5	!	!LO:TX:a:t=5	!	!LO:TX:a:t=5	!	!	!	!	!	!	!
!	!	!LO:DY:b::t=po&colon;	!	!	!	!	!	!	!LO:N:vis=00	!	!LO:N:vis=00	!	!LO:N:vis=00	!	!	!	!	!	!	!
8D\L	.	p	8f#/L	.	8a/L	4D\	a-	.	0.r	.	0.r	.	0.r	.	.	2.ryy	2.ryy	2.ryy	2.ryy	2.ryy
8D\	.	.	8f#/	.	8a/	.	.	.	.	.	.	.	.	.	.	.	.	.	.	.
8D\	.	.	8f#/	.	8a/	(4d\	.	.	.	.	.	.	.	.	.	.	.	.	.	.
8D\	.	.	8f#/	.	8a/	.	.	.	.	.	.	.	.	.	.	.	.	.	.	.
!	!	!	!	!	!	!LO:TX:a:t=a	!	!	!	!	!	!	!	!	!	!	!	!	!	!
8D\	.	.	8f#/	.	8a/	4A\)	-gnus	.	.	.	.	.	.	.	.	.	.	.	.	.
8D\J	.	.	8f#/J	.	8a/J	.	.	.	.	.	.	.	.	.	.	.	.	.	.	.
=17	=17	=17	=17	=17	=17	=17	=17	=17	=17	=17	=17	=17	=17	=17	=17	=17	=17	=17	=17	=17
8D\L	.	.	8f#/L	.	8a/L	4F#\	D.	.	.	.	.	.	.	.	.	2.ryy	2.ryy	2.ryy	2.ryy	4ryy
8D\	.	.	8f#/	.	8a/	.	.	.	.	.	.	.	.	.	.	.	.	.	.	.
8D\	.	.	8f#/	.	8a/	4E\	-i	.	.	.	.	.	.	.	.	.	.	.	.	2ryy
8D\	.	.	8f#/	.	8a/	.	.	.	.	.	.	.	.	.	.	.	.	.	.	.
8D\	.	.	8f#/	.	8a/	4D\	qui	.	.	.	.	.	.	.	.	.	.	.	.	.
8D\J	.	.	8f#/J	.	8a/J	.	.	.	.	.	.	.	.	.	.	.	.	.	.	.
*	*	*	*Xtremolo	*	*Xtremolo	*	*	*	*	*	*	*	*	*	*	*	*	*	*	*
=18	=18	=18	=18	=18	=18	=18	=18	=18	=18	=18	=18	=18	=18	=18	=18	=18	=18	=18	=18	=18
4D#X\	n7	.	4f#/	.	4a/	(4cn\	to-	.	.	.	.	.	.	.	.	2.ryy	2.ryy	2.ryy	2.ryy	2.ryy
4r	.	.	4r	.	4g/	4B\)	.	.	.	.	.	.	.	.	.	.	.	.	.	.
!	!	!	!	!	!	!LO:LB:g=original	!	!	!	!	!	!	!	!	!	!	!	!	!	!
4D#\	6	.	4r	.	4a/	4A\	-lis	.	.	.	.	.	.	.	.	.	.	.	.	.
.	5	.	.	.	.	.	.	.	.	.	.	.	.	.	.	.	.	.	.	.
=19	=19	=19	=19	=19	=19	=19	=19	=19	=19	=19	=19	=19	=19	=19	=19	=19	=19	=19	=19	=19
4E\	3	.	8g/L	.	8g/L|	(8G\L	pe-	.	.	.	.	.	.	.	.	2.ryy	2.ryy	2.ryy	2.ryy	2.ryy
.	.	.	8f#/	.	8f#/|	8F#\)	.	.	.	.	.	.	.	.	.	.	.	.	.	.
8E'\L	.	.	8e/	.	8e/|	(8E\	-ca-	.	.	.	.	.	.	.	.	.	.	.	.	.
!	!	!	!	!LO:DY:a	!	!	!	!	!	!	!	!	!	!	!	!	!	!	!	!
8F#'\	.	.	8f#/	f	8f#/|	8F#\J)	.	.	.	.	.	.	.	.	.	.	.	.	.	.
8G'\	.	.	8g/	.	8g/|	(8G\L	-ta	.	.	.	.	.	.	.	.	.	.	.	.	.
8A'\J	.	.	8a/J	.	8a/J|	8A\J)	.	.	.	.	.	.	.	.	.	.	.	.	.	.
=20	=20	=20	=20	=20	=20	=20	=20	=20	=20	=20	=20	=20	=20	=20	=20	=20	=20	=20	=20	=20
4B\|	.	.	4b/	.	4b\	4B\	mun-	.	2.r	.	2.r	.	2.r	.	.	2.ryy	2.ryy	2.ryy	2.ryy	2.ryy
4BB/	.	.	4B/	.	4B/	4BB/	-di	.	.	.	.	.	.	.	.	.	.	.	.	.
4r	.	.	4r	.	4r	4r	.	.	.	.	.	.	.	.	.	.	.	.	.	.
!	!	!	!	!	!LO:TX:rj:b:t=V&colon;	!	!	!	!	!	!	!	!	!	!	!	!	!	!	!
!	!	!	!LO:LB:g=original	!	!LO:PB:g=original	!	!	!	!	!	!	!	!	!	!	!	!	!	!	!
=21	=21	=21	=21	=21	=21	=21	=21	=21	=21	=21	=21	=21	=21	=21	=21	=21	=21	=21	=21	=21
8A\L	4	.	2.f#/ 2.B/	.	16r	2A\	mi-	.	2B\	mi-	2f#\	mi-	2dd#\	mi-	.	2.ryy	2.ryy	2.ryy	2.ryy	2.ryy
.	.	.	.	.	(16b\LL	.	.	.	.	.	.	.	.	.	.	.	.	.	.	.
8A\	.	.	.	.	16a#X\	.	.	.	.	.	.	.	.	.	.	.	.	.	.	.
.	.	.	.	.	16b\JJ)	.	.	.	.	.	.	.	.	.	.	.	.	.	.	.
8A\	.	.	.	.	16r	.	.	.	.	.	.	.	.	.	.	.	.	.	.	.
.	.	.	.	.	(16dd#X\LL	.	.	.	.	.	.	.	.	.	.	.	.	.	.	.
8A\	.	.	.	.	16cc\	.	.	.	.	.	.	.	.	.	.	.	.	.	.	.
.	.	.	.	.	16dd#\JJ)	.	.	.	.	.	.	.	.	.	.	.	.	.	.	.
8A\	+ 2	.	.	.	(16ff#\LL	4A\	-se-	.	4B\	-s.	4f#\	-s.	4dd#\	-s.	.	.	.	.	.	.
.	.	.	.	.	16dd#\	.	.	.	.	.	.	.	.	.	.	.	.	.	.	.
8A\J	.	.	.	.	16bb\)	.	.	.	.	.	.	.	.	.	.	.	.	.	.	.
.	.	.	.	.	16dd#\JJ	.	.	.	.	.	.	.	.	.	.	.	.	.	.	.
!LO:LB:g=original	!	!	!	!	!	!	!	!	!	!	!	!	!	!	!	!	!	!	!	!
=22	=22	=22	=22	=22	=22	=22	=22	=22	=22	=22	=22	=22	=22	=22	=22	=22	=22	=22	=22	=22
8G\L	6	.	2.g/ 2.B/	.	16r	2G\	-re	.	2B\	-r.	2g\	-r.	4ee\	-r.	.	2.ryy	2.ryy	2.ryy	2.ryy	2.ryy
.	.	.	.	.	16b/LL	.	.	.	.	.	.	.	.	.	.	.	.	.	.	.
8G\	.	.	.	.	16a/	.	.	.	.	.	.	.	.	.	.	.	.	.	.	.
.	.	.	.	.	16b/JJ	.	.	.	.	.	.	.	.	.	.	.	.	.	.	.
8G\	.	.	.	.	16r	.	.	.	.	.	.	.	4ee\	-re	.	.	.	.	.	.
.	.	.	.	.	16ee\LL	.	.	.	.	.	.	.	.	.	.	.	.	.	.	.
8G\	.	.	.	.	16dd\	.	.	.	.	.	.	.	.	.	.	.	.	.	.	.
.	.	.	.	.	16ee\JJ	.	.	.	.	.	.	.	.	.	.	.	.	.	.	.
8G\	.	.	.	.	16gg\LL	4G\	-re	.	4B\	-re	4g\	-re	4r	.	.	.	.	.	.	.
.	.	.	.	.	16ee\	.	.	.	.	.	.	.	.	.	.	.	.	.	.	.
8G\J	.	.	.	.	16bb\	.	.	.	.	.	.	.	.	.	.	.	.	.	.	.
.	.	.	.	.	16gg\JJ	.	.	.	.	.	.	.	.	.	.	.	.	.	.	.
=23	=23	=23	=23	=23	=23	=23	=23	=23	=23	=23	=23	=23	=23	=23	=23	=23	=23	=23	=23	=23
8A\L	4	.	2.f#/ 2.B/	.	16r	2.A\	no-	.	2.B\	no-	2.f#\	no-	2.dd#X\	no-	.	2.ryy	2.ryy	2.ryy	2.ryy	2.ryy
.	.	.	.	.	16b\LL	.	.	.	.	.	.	.	.	.	.	.	.	.	.	.
8A\	.	.	.	.	16a\	.	.	.	.	.	.	.	.	.	.	.	.	.	.	.
.	.	.	.	.	16b\JJ	.	.	.	.	.	.	.	.	.	.	.	.	.	.	.
8A\	.	.	.	.	16r	.	.	.	.	.	.	.	.	.	.	.	.	.	.	.
.	.	.	.	.	16dd\LL	.	.	.	.	.	.	.	.	.	.	.	.	.	.	.
8A\	.	.	.	.	16cc\	.	.	.	.	.	.	.	.	.	.	.	.	.	.	.
.	.	.	.	.	16dd\JJ	.	.	.	.	.	.	.	.	.	.	.	.	.	.	.
8A\	+ 2	.	.	.	16ff#\LL	.	.	.	.	.	.	.	.	.	.	.	.	.	.	.
.	.	.	.	.	16dd\	.	.	.	.	.	.	.	.	.	.	.	.	.	.	.
8A\J	.	.	.	.	16bb\	.	.	.	.	.	.	.	.	.	.	.	.	.	.	.
.	.	.	.	.	16dd\JJ	.	.	.	.	.	.	.	.	.	.	.	.	.	.	.
=24	=24	=24	=24	=24	=24	=24	=24	=24	=24	=24	=24	=24	=24	=24	=24	=24	=24	=24	=24	=24
!	!	!	!LO:TX:a:t=P:problem:mixed beam	!	!	!	!	!	!	!	!	!	!	!	!	!	!	!	!	!
4G\	6	.	8g/L	.	8ee\L	4G\	-bis	.	4B\	-bis	4g\	-bis	4ee\	-bis	.	2.ryy	2.ryy	2.ryy	2.ryy	2.ryy
.	.	.	8gg\	.	8bb\	.	.	.	.	.	.	.	.	.	.	.	.	.	.	.
4r	.	.	8ee\	.	8gg\	4r	.	.	4r	.	4r	.	4r	.	.	.	.	.	.	.
.	.	.	8b\	.	8ee\	.	.	.	.	.	.	.	.	.	.	.	.	.	.	.
4r	.	.	8g\	.	8b\	4r	.	.	4r	.	4r	.	4r	.	.	.	.	.	.	.
.	.	.	8e\J	.	8g\J	.	.	.	.	.	.	.	.	.	.	.	.	.	.	.
=25	=25	=25	=25	=25	=25	=25	=25	=25	=25	=25	=25	=25	=25	=25	=25	=25	=25	=25	=25	=25
!LO:TX:a:t=Tutti	!	!	!	!	!	!	!	!	!	!	!	!	!	!	!	!	!	!	!	!
4A\	6 5	.	8a/L	.	8cc\L	(4A\	no-	.	(4A\	no-	(8a\L	no-	8cc\L|	no-	.	2.ryy	2.ryy	2.ryy	2.ryy	2.ryy
.	.	.	16g/L	.	16b\L	.	.	.	.	.	16g\L	.	(16b\L	.	.	.	.	.	.	.
.	.	.	16f#/JJ	.	16a\JJ	.	.	.	.	.	16f#\JJ)	.	16a\JJ)	.	.	.	.	.	.	.
4B\	x 4	.	4e/	.	4g/	4B\	.	.	2B\	.	4e\	.	(4g/	.	.	.	.	.	.	.
4BB/	x 3	.	4d#X/	.	4f#/	4BB/)	.	.	.	.	4d#X\	.	4f#/)	.	.	.	.	.	.	.
=26	=26	=26	=26	=26	=26	=26	=26	=26	=26	=26	=26	=26	=26	=26	=26	=26	=26	=26	=26	=26
4E\	n	.	4e/	.	4e/	4E\	-bis	.	4B\)	-bis	4e\	-bis	4e/	-bis	.	2.ryy	2.ryy	2.ryy	2.ryy	2.ryy
8d'\L	.	.	4r	.	4r	4r	.	.	4r	.	4r	.	4r	.	.	.	.	.	.	.
8c'\	.	.	.	.	.	.	.	.	.	.	.	.	.	.	.	.	.	.	.	.
8B'\	.	.	4r	.	4r	4r	.	.	4r	.	4r	.	4r	.	.	.	.	.	.	.
8A'\J	.	.	.	.	.	.	.	.	.	.	.	.	.	.	.	.	.	.	.	.
!	!	!	!	!	!LO:LB:g=original	!	!	!	!	!	!	!	!	!	!	!	!	!	!	!
=27	=27	=27	=27	=27	=27	=27	=27	=27	=27	=27	=27	=27	=27	=27	=27	=27	=27	=27	=27	=27
*	*	*	*tremolo	*	*tremolo	*	*	*	*	*	*	*	*	*	*	*	*	*	*	*
!	!	!	!	!	!LO:SIC:o:s:=:v:podłużne staccato kilkukrotnie wpisane	!	!	!	!	!	!	!	!	!	!	!	!	!	!	!
8G#X\L	3 5	.	8b/L	.	8dd\L	2G#X\	a-	.	2d\	a-	2b\	a-	2dd\	a-	.	2.ryy	2.ryy	2.ryy	2.ryy	2.ryy
8G#X\	.	.	8b/	.	8dd\	.	.	.	.	.	.	.	.	.	.	.	.	.	.	.
8G#X\	.	.	8b/	.	8dd\	.	.	.	.	.	.	.	.	.	.	.	.	.	.	.
8G#X\	.	.	8b/	.	8dd\	.	.	.	.	.	.	.	.	.	.	.	.	.	.	.
8G#X\	.	.	8b/	.	8dd\	4G#\	-gnus	.	4d\	-gnus	4b\	-gnus	4dd\	-gnus	.	.	.	.	.	.
8G#X\J	.	.	8b/J	.	8dd\J	.	.	.	.	.	.	.	.	.	.	.	.	.	.	.
!	!	!	!	!	!	!	!	!	!LO:LB:g=original	!	!LO:LB:g=original	!	!	!	!	!	!	!	!	!
=28	=28	=28	=28	=28	=28	=28	=28	=28	=28	=28	=28	=28	=28	=28	=28	=28	=28	=28	=28	=28
!	!	!	!	!	!	!	!	!	!LO:SIC:o:s:=:v:ucięta strona	!	!	!	!	!	!	!	!	!	!	!
8A\L	4 2	.	8b/L	.	8dd\L	4A\	D.	.	4ryy	.	(8b\L	D.	(8dd\L	D.	.	2.ryy	2.ryy	2.ryy	2.ryy	2.ryy
8A\	.	.	8a/J	.	8cc\J	.	.	.	.	.	8a\J)	.	8cc\J)	.	.	.	.	.	.	.
8A\	2 1	.	4a/	.	4cc\	4A\	-i	.	4d\	i	4a\	-i	4cc\|	-i	.	.	.	.	.	.
8A\	.	.	.	.	.	.	.	.	.	.	.	.	.	.	.	.	.	.	.	.
8A\	.	.	4r	.	4r	4r	.	.	4r	.	4r	.	4r	.	.	.	.	.	.	.
8A\J	.	.	.	.	.	.	.	.	.	.	.	.	.	.	.	.	.	.	.	.
!	!	!	!	!	!	!LO:LB:g=original	!	!	!	!	!	!	!LO:LB:g=original	!	!	!	!	!	!	!
=29	=29	=29	=29	=29	=29	=29	=29	=29	=29	=29	=29	=29	=29	=29	=29	=29	=29	=29	=29	=29
*	*	*	*	*	*	*	*ij	*	*	*ij	*	*ij	*	*ij	*	*	*	*	*	*
8F#\L	5 3	.	8a/L	.	8cc\L	2F#\	A-	.	2d\	A-	2a\	A-	2cc\	A-	.	2.ryy	2.ryy	2.ryy	2.ryy	2.ryy
8F#\	.	.	8a/	.	8cc\	.	.	.	.	.	.	.	.	.	.	.	.	.	.	.
8F#\	.	.	8a/	.	8cc\	.	.	.	.	.	.	.	.	.	.	.	.	.	.	.
8F#\	.	.	8a/	.	8cc\	.	.	.	.	.	.	.	.	.	.	.	.	.	.	.
8F#\	.	.	8a/	.	8cc\	4F#\	-gnus	.	4d\	-gnus	4a\	-gnus	4cc\	-gnus	.	.	.	.	.	.
8F#\J	.	.	8a/J	.	8cc\J	.	.	.	.	.	.	.	.	.	.	.	.	.	.	.
*	*	*	*	*	*Xtremolo	*	*	*	*	*	*	*	*	*	*	*	*	*	*	*
*	*	*	*	*	*Xtremolo	*	*	*	*	*	*	*	*	*	*	*	*	*	*	*
=30	=30	=30	=30	=30	=30	=30	=30	=30	=30	=30	=30	=30	=30	=30	=30	=30	=30	=30	=30	=30
8Gn\L	4 2	.	8a/L	.	8cc\L	4Gn\	D.	.	4d\	D.	(8a\L	D.	8cc\L	D.	.	2.ryy	2.ryy	2.ryy	2.ryy	2.ryy
8Gn\	.	.	8g/J	.	8b\J	.	.	.	.	.	8g\J)	.	8b\J	.	.	.	.	.	.	.
8Gn\	.	.	8g/L	.	4b\	4G\	-i	.	4d\	-i	4g\	-i	4b\	-i	.	.	.	.	.	.
8Gn\	3 1	.	8d/	.	.	.	.	.	.	.	.	.	.	.	.	.	.	.	.	.
8Gn\	.	.	8d/	.	8r	8r	.	.	8r	.	8r	.	8r	.	.	.	.	.	.	.
*	*	*	*	*	*	*	*Xij	*	*	*Xij	*	*Xij	*	*Xij	*	*	*	*	*	*
8Gn\J	.	.	8d/J	.	8b/	8GG/	qui	.	8d\	qui	8g\	qui	8b\	qui	.	.	.	.	.	.
=31	=31	=31	=31	=31	=31	=31	=31	=31	=31	=31	=31	=31	=31	=31	=31	=31	=31	=31	=31	=31
8C/L	4 2	.	8e/L	.	16a/LL	4C/	tol-	.	4c\	tol-	4e\	tol-	4a\	tol-	.	2.ryy	2.ryy	2.ryy	2.ryy	2.ryy
.	.	.	.	.	16g#X/	.	.	.	.	.	.	.	.	.	.	.	.	.	.	.
8C/	.	.	8e/	.	16b/	.	.	.	.	.	.	.	.	.	.	.	.	.	.	.
.	.	.	.	.	16a/JJ	.	.	.	.	.	.	.	.	.	.	.	.	.	.	.
8C/	3 1	.	8e/	.	16cc\LL	4C/	-lis	.	4c\	-lis	4e\	-lis	4a\	-lis	.	.	.	.	.	.
.	.	.	.	.	16b\	.	.	.	.	.	.	.	.	.	.	.	.	.	.	.
8C/	.	.	8e/	.	16dd\	.	.	.	.	.	.	.	.	.	.	.	.	.	.	.
.	.	.	.	.	16cc\JJ	.	.	.	.	.	.	.	.	.	.	.	.	.	.	.
8C/	.	.	8e/	.	16ee\LL	4C/	pec-	.	4c\	pec-	4e\	pec-	4a\	pec-	.	.	.	.	.	.
.	.	.	.	.	16dd\	.	.	.	.	.	.	.	.	.	.	.	.	.	.	.
8C/J	.	.	8e/J	.	16cc\	.	.	.	.	.	.	.	.	.	.	.	.	.	.	.
.	.	.	.	.	16b\JJ	.	.	.	.	.	.	.	.	.	.	.	.	.	.	.
!	!	!	!LO:LB:g=original	!	!	!	!	!	!	!	!	!	!	!	!	!	!	!	!	!
=32	=32	=32	=32	=32	=32	=32	=32	=32	=32	=32	=32	=32	=32	=32	=32	=32	=32	=32	=32	=32
8C/L	6	.	8e/L	.	16a/LL	4C/	-ca-	.	4c\	-ca-	4e\	-ca-	4a\	-ca-	.	2.ryy	2.ryy	2.ryy	2.ryy	2.ryy
.	.	.	.	.	16g#X/	.	.	.	.	.	.	.	.	.	.	.	.	.	.	.
8C/	.	.	8e/	.	16b/	.	.	.	.	.	.	.	.	.	.	.	.	.	.	.
.	.	.	.	.	16a/JJ	.	.	.	.	.	.	.	.	.	.	.	.	.	.	.
8C/	.	.	8e/	.	16cc\LL	4C/	-ta	.	4c\	-ta	4e\	-ta	4a\	-ta	.	.	.	.	.	.
.	.	.	.	.	16b\	.	.	.	.	.	.	.	.	.	.	.	.	.	.	.
8C/	.	.	8e/	.	16dd\	.	.	.	.	.	.	.	.	.	.	.	.	.	.	.
.	.	.	.	.	16cc\JJ	.	.	.	.	.	.	.	.	.	.	.	.	.	.	.
8C/	.	.	8e/	.	16ee\LL	8r	.	.	8r	.	8r	.	8r	.	.	.	.	.	.	.
.	.	.	.	.	16dd\	.	.	.	.	.	.	.	.	.	.	.	.	.	.	.
*	*	*	*	*	*	*	*ij	*	*	*ij	*	*ij	*	*ij	*	*	*	*	*	*
8C/J	.	.	8e/J	.	16cc\	8C/	pec-	.	8c\	pec-	8e\	pec-	8a\	pec-	.	.	.	.	.	.
.	.	.	.	.	16b\JJ	.	.	.	.	.	.	.	.	.	.	.	.	.	.	.
=33	=33	=33	=33	=33	=33	=33	=33	=33	=33	=33	=33	=33	=33	=33	=33	=33	=33	=33	=33	=33
8C/L	.	.	8e/L	.	16a/LL	2C/	-ca-	.	2c\	-ca-	2e\	-ca-	2a\	-ca-	.	2.ryy	2.ryy	2.ryy	2.ryy	2.ryy
.	.	.	.	.	16g#X/	.	.	.	.	.	.	.	.	.	.	.	.	.	.	.
8C/	.	.	8e/	.	16b/	.	.	.	.	.	.	.	.	.	.	.	.	.	.	.
.	.	.	.	.	16a/JJ	.	.	.	.	.	.	.	.	.	.	.	.	.	.	.
8C/	.	.	8e/	.	16cc\LL	.	.	.	.	.	.	.	.	.	.	.	.	.	.	.
.	.	.	.	.	16b\	.	.	.	.	.	.	.	.	.	.	.	.	.	.	.
8C/J	.	.	8e/	.	16dd\	.	.	.	.	.	.	.	.	.	.	.	.	.	.	.
.	.	.	.	.	16cc\JJ	.	.	.	.	.	.	.	.	.	.	.	.	.	.	.
8C#X/L	6	.	8e/	.	(16ee\LL	4C#X/	-ta	.	4c#X\	-ta	4e\	-ta	4g\	-ta	.	.	.	.	.	.
.	.	.	.	.	16cc\	.	.	.	.	.	.	.	.	.	.	.	.	.	.	.
8C#/J	5	.	8e/J	.	16a\	.	.	.	.	.	.	.	.	.	.	.	.	.	.	.
.	.	.	.	.	16g#X\JJ)	.	.	.	.	.	.	.	.	.	.	.	.	.	.	.
*	*	*	*Xtremolo	*	*	*	*	*	*	*	*	*	*	*	*	*	*	*	*	*
*	*	*	*Xtremolo	*	*	*	*Xij	*	*	*Xij	*	*Xij	*	*Xij	*	*	*	*	*	*
!LO:LB:g=original	!	!	!	!	!	!	!	!	!	!	!	!	!	!	!	!	!	!	!	!
=34	=34	=34	=34	=34	=34	=34	=34	=34	=34	=34	=34	=34	=34	=34	=34	=34	=34	=34	=34	=34
4D\	.	.	4A/	.	8f#/L	4D/	mun-	.	(8A/L	mun-	4d\	mun-	8f#/L	mun-	.	2.ryy	2.ryy	2.ryy	2.ryy	2.ryy
.	.	.	.	.	16e/L	.	.	.	16G/L	.	.	.	16e/L	.	.	.	.	.	.	.
.	.	.	.	.	16d/JJ	.	.	.	16F#/JJ)	.	.	.	16d/JJ	.	.	.	.	.	.	.
4D\	.	.	4A/	.	4d/	4D/	-di	.	4F#/	-di	4d\	-di	4d/	-di	.	.	.	.	.	.
4r	.	.	4r	.	4r	4r	.	.	4r	.	4r	.	4r	.	.	.	.	.	.	.
!	!	!	!	!	!LO:LB:g=original	!	!	!	!	!	!	!	!	!	!	!	!	!	!	!
=35	=35	=35	=35	=35	=35	=35	=35	=35	=35	=35	=35	=35	=35	=35	=35	=35	=35	=35	=35	=35
*	*	*	*^	*	*	*	*	*	*	*	*	*	*	*	*	*	*	*	*	*
8G\L	4	.	8r	8ryy	.	8cc#X\	2G\	do-	.	2A\	do-	2e\	do-	2cc#X\	Do-	.	2.ryy	2.ryy	2.ryy	2.ryy	2.ryy
8G\	.	.	8a/	8e\	.	8r	.	.	.	.	.	.	.	.	.	.	.	.	.	.	.
8G\	.	.	8r	8ryy	.	8aa\	.	.	.	.	.	.	.	.	.	.	.	.	.	.	.
8G\	+ 2	.	8a/	8e\	.	8r	.	.	.	.	.	.	.	.	.	.	.	.	.	.	.
8G\	.	.	8r	8ryy	.	8cc#\	4G\	-na	.	4A\	-na	4e\	-na	4cc#\	-na	.	.	.	.	.	.
!	!	!	!	!	!	!LO:SIC:o:s:=:v:brak uwzględnionej jednej 8	!	!	!	!	!	!	!	!	!	!	!	!	!	!	!
8G\J	.	.	8a/	8e\	.	8ryy	.	.	.	.	.	.	.	.	.	.	.	.	.	.	.
*Xtremolo	*	*	*	*	*	*	*	*	*	*	*	*	*	*	*	*	*	*	*	*	*
*	*	*	*v	*v	*	*	*	*	*	*	*	*	*	*	*	*	*	*	*	*	*
=36	=36	=36	=36	=36	=36	=36	=36	=36	=36	=36	=36	=36	=36	=36	=36	=36	=36	=36	=36	=36
4F#\	.	.	8f#'/L	.	(8dd\L	4F#\	no-	.	4A\	no-	4f#\	no-	4dd\	no-	.	2.ryy	2.ryy	2.ryy	2.ryy	2.ryy
.	.	.	8a'/	.	8aa\	.	.	.	.	.	.	.	.	.	.	.	.	.	.	.
4F#\	.	.	8g'/	.	8gg\	4F#\	-bis	.	4A\	-bis	4f#\	-bis	4dd\	-bis	.	.	.	.	.	.
.	.	.	8f#'/	.	8ff#\	.	.	.	.	.	.	.	.	.	.	.	.	.	.	.
4r	.	.	8e'/	.	8ee\	4r	.	.	4r	.	4r	.	4r	.	.	.	.	.	.	.
.	.	.	8d'/J	.	8dd\J)	.	.	.	.	.	.	.	.	.	.	.	.	.	.	.
!	!	!	!	!	!	!	!	!	!LO:LB:g=original	!	!	!	!	!	!	!	!	!	!	!
=37	=37	=37	=37	=37	=37	=37	=37	=37	=37	=37	=37	=37	=37	=37	=37	=37	=37	=37	=37	=37
!LO:TX:a:t=pedal	!	!	!	!	!	!	!	!	!	!	!	!	!	!	!	!	!	!	!	!
2.AA/	.	.	8e/	.	8cc#X\	2.AA/	pa-	.	2.c\	pa-	2.e\	pa-	2.g/	pa-	.	2.ryy	2.ryy	2.ryy	2.ryy	2.ryy
.	.	.	8r	.	8r	.	.	.	.	.	.	.	.	.	.	.	.	.	.	.
!	!	!	!	!	!LO:TX:a:t=e	!	!	!	!	!	!	!	!	!	!	!	!	!	!	!
.	.	.	8g/	.	8ee\	.	.	.	.	.	.	.	.	.	.	.	.	.	.	.
.	.	.	8r	.	8r	.	.	.	.	.	.	.	.	.	.	.	.	.	.	.
.	.	.	8b/	.	8g/	.	.	.	.	.	.	.	.	.	.	.	.	.	.	.
.	.	.	8r	.	8r	.	.	.	.	.	.	.	.	.	.	.	.	.	.	.
!	!	!	!	!	!	!LO:LB:g=original	!	!	!	!	!	!	!	!	!	!	!	!	!	!
=38	=38	=38	=38	=38	=38	=38	=38	=38	=38	=38	=38	=38	=38	=38	=38	=38	=38	=38	=38	=38
2.D\	.	.	2.d;/	.	2.f#;/	2.D\	-cem	.	2A;\	-cem.	2d;\	-cem	2f#;/	-cem	.	2.ryy	2.ryy	2.ryy	2.ryy	2.ryy
.	.	.	.	.	.	.	.	.	4r	.	4r	.	4r	.	.	.	.	.	.	.
=39||	=39||	=39||	=39||	=39||	=39||	=39||	=39||	=39||	=39||	=39||	=39||	=39||	=39||	=39||	=39||	=39||	=39||	=39||	=39||	=39||
*k[f#c#]	*	*	*k[f#c#]	*	*k[f#c#]	*k[f#c#]	*	*	*k[f#c#]	*	*k[c#f#]	*	*k[f#c#]	*	*	*k[]	*k[f#c#]	*k[f#c#]	*k[f#c#]	*k[f#c#]
*D:	*	*	*D:	*	*D:	*D:	*	*	*D:	*	*D:	*	*D:	*	*	*	*	*	*D:	*D:
*M2/4	*	*	*M2/4	*	*M2/4	*M2/4	*	*	*M2/4	*	*M2/4	*	*M2/4	*	*	*M2/4	*M2/4	*M2/4	*M2/4	*M2/4
*	*	*	*	*	*	*	*	*	*	*	*	*	*	*	*	*	*	*^	*	*
!LO:TX:a:t=Dona ut Kyrie	!	!	!LO:TX:a:t=Dona ut Kyrie.	!	!LO:TX:a:t=Dona ut Kyrie.	!LO:TX:a:t=Dona ut Kyrie da Capo	!	!	!LO:TX:a:t=Dona ut Kyrie	!	!LO:TX:a:t=Do... (problem&colon;strona zagryziona)	!	!LO:TX:a:t=Dona ut \nKyrie da (problem&colon;pozaginana strona w skanie "da capo" ?)	!	!	!	!LO:TX:a:t=Dona ut Kyrie Da Capo.	!LO:TX:a:t=Dona ut Kyrie Da Capo.	!	!LO:TX:a:t=Dona ut Kyrie Da Capo.	!LO:TX:a:t=Dona ut Kyrie Da Capo.
!LO:TX:a:t=P:problem:mixed beam	!	!	!	!	!	!	!	!	!	!	!	!	!	!	!	!	!	!	!	!	!
!LO:TX:a:i:t=Tutti	!	!	!	!	!	!	!	!	!	!	!	!	!	!	!	!	!	!	!	!	!
!	!	!	!	!	!	!	!	!	!	!	!	!	!LO:TX:a:i:t=Tutti	!	!	!	!	!	!	!	!
!LO:TX:rj:a:i:t=allo	!	!	!LO:TX:a:i:t=allo	!	!LO:TX:a:i:t=allo&colon;	!LO:TX:a:i:t=allo.	!	!	!LO:TX:rj:a:i:t=allo.	!	!LO:TX:a:t=allo	!	!LO:TX:rj:a:t=allo	!	!	!	!LO:TX:a:t=allo&colon;	!LO:TX:a:i:t=allo.	!	!LO:TX:a:i:t=allo.	!LO:TX:a:i:t=allo.
8D\Lyy	8 3	.	4.f#/yy	.	4.dd\yy	8D\Lyy	.	.	4A\yy	.	4.f#\yy	.	4.dd\yy	.	.	4C/	8dd/Lyy 8d/yy	4.d/yy	4.F#\yy	4.f#/yy	4.dd\yy
8F#\yy	.	.	.	.	.	8F#\yy	.	.	.	.	.	.	.	.	.	.	16dd/Lyy 16d/yy	.	.	.	.
.	.	.	.	.	.	.	.	.	.	.	.	.	.	.	.	.	16dd/JJyy 16d/yy	.	.	.	.
8A\yy	4 6	.	.	.	.	8A\Jyy	.	.	4A\yy	.	.	.	.	.	.	8r	8dd/Lyy 8d/yy	.	.	.	.
8AA/Jyy	5 3	.	(16g/LLyy	.	(16ee\LLyy	8AA/yy	.	.	.	.	(16g\LLyy	.	(16ee\LLyy	.	.	8GG/	8a/Jyy 8A/yy	8e/yy	8A\yy	(16g/LLyy	(16ee\LLyy
.	.	.	16e/JJ)yy	.	16cc#\JJ)yy	.	.	.	.	.	16e\JJ)yy	.	16cc#\JJ)yy	.	.	.	.	.	.	16e/JJ)yy	16cc#X\JJ)yy
=40	=40	=40	=40	=40	=40	=40	=40	=40	=40	=40	=40	=40	=40	=40	=40	=40	=40	=40	=40	=40	=40
4D\yy	.	.	8f#/Lyy|	.	8dd\Lyy|	4D\yy	.	.	4A\yy	.	8f#\yy	.	8dd\yy	.	.	4C/	4dd/yy 4d/yy	4d/yy	4F#\yy	8f#/Lyy|	8dd\Lyy
.	.	.	8b/yy|	.	8gg\yy|	.	.	.	.	.	(8b\Lyy	.	(8gg\Lyy	.	.	.	.	.	.	8b/yy|	8gg\yy
4ryy	.	.	8a/yy|	.	8ff#\yy|	4ryy	.	.	4ryy	.	8a\yy	.	8ff#\yy	.	.	4r	4ryy	4ryy	4ryy	8a/yy|	8ff#X\yy
.	.	.	8g/Jyy|	.	8ee\Jyy|	.	.	.	.	.	8g\J)yy	.	8ee\J)yy	.	.	.	.	.	.	8g/Jyy|	8ee\Jyy
=41	=41	=41	=41	=41	=41	=41	=41	=41	=41	=41	=41	=41	=41	=41	=41	=41	=41	=41	=41	=41	=41
!LO:TX:a:t=P:problem:mixed beam	!	!	!	!	!	!	!	!	!	!	!	!	!	!	!	!	!	!	!	!	!
*	*	*	*	*	*	*	*ij	*	*	*ij	*	*	*	*	*	*	*	*	*	*	*
8D\Lyy	8 3	.	4.f#/yy	.	4.dd\yy	8D\Lyy	.	.	4A\yy	.	4.f#\yy	.	4.dd\yy	.	.	4.C/	8dd/Lyy 8d/yy	4.d/yy	4.F#\yy	4.f#/yy	4.dd\yy
8F#\yy	.	.	.	.	.	8F#\yy	.	.	.	.	.	.	.	.	.	.	16dd/Lyy 16d/yy	.	.	.	.
.	.	.	.	.	.	.	.	.	.	.	.	.	.	.	.	.	16dd/JJyy 16d/yy	.	.	.	.
8A\yy	4 6	.	.	.	.	8A\Jyy	.	.	4A\yy	.	.	.	.	.	.	.	8dd/Lyy 8d/yy	.	.	.	.
8AA/Jyy	.	.	(16g/LLyy	.	(16ee\LLyy	8AA/yy	.	.	.	.	(16g\LLyy	.	(16ee\LLyy	.	.	8GG/	8a/Jyy 8A/yy	8e/yy	8A\yy	16g/LLyy	(16ee\LLyy
.	.	.	16e/JJ)yy	.	16cc#\JJ)yy	.	.	.	.	.	16e\JJ)yy	.	16cc#\JJ)yy	.	.	.	.	.	.	16e/JJyy	16cc#X\JJ)yy
=42	=42	=42	=42	=42	=42	=42	=42	=42	=42	=42	=42	=42	=42	=42	=42	=42	=42	=42	=42	=42	=42
4D\yy	.	.	8f#/Lyy|	.	8dd\Lyy	4D/yy	.	.	4A\yy	.	8f#\Lyy	.	(8dd\Lyy	.	.	4C/	4dd/yy 4d/yy	4d/yy	4F#\yy	8f#/Lyy|	8dd\Lyy
*	*	*	*	*	*	*	*Xij	*	*	*Xij	*	*	*	*	*	*	*	*	*	*	*
.	.	.	8g/yy|	.	8bb\yy	.	.	.	.	.	8g\yy	.	8bb\yy	.	.	.	.	.	.	8g/yy|	8bb\yy
4ryy	.	.	8f#/yy|	.	8aa\yy	4ryy	.	.	4ryy	.	8f#\yy	.	8aa\yy	.	.	4r	4ryy	4ryy	4ryy	8f#/yy|	8aa\yy
.	.	.	8e/Jyy|	.	8gg\Jyy	.	.	.	.	.	8e\Jyy	.	8gg\J)yy	.	.	.	.	.	.	8e/Jyy|	8gg\Jyy
*	*	*	*	*	*	*	*	*	*	*	*	*	*	*	*	*	*	*v	*v	*	*
=43	=43	=43	=43	=43	=43	=43	=43	=43	=43	=43	=43	=43	=43	=43	=43	=43	=43	=43	=43	=43
!	!	!	!LO:TX:a:t=P:problem:mixed beam	!	!	!	!	!	!	!	!	!	!	!	!	!LO:TX:a:t=1.	!LO:TX:b:t=1.	!LO:TX:a:t=1.	!	!
4ryy	.	.	8d/Lyy|	.	4ff#\yy|	4ryy	.	.	4ryy	.	8d\Lyy	.	4ff#\yy	.	.	2r	2ryy	2ryy	4d/yy	4ff#\yy
.	.	.	8dd\Jyy	.	.	.	.	.	.	.	8dd\Jyy	.	.	.	.	.	.	.	.	.
8ryy	.	.	(16cc#\LLyy	.	(16ee\LLyy	8ryy	.	.	8ryy	.	16cc#\LLyy	.	16ee\LLyy	.	.	.	.	.	4ryy	4ryy
.	.	.	16b\yy	.	16dd\yy	.	.	.	.	.	16b\yy	.	16dd\yy	.	.	.	.	.	.	.
8G\yy|	3 1	.	16a\yy	.	16cc#\yy	8G\yy	.	.	8B\yy	.	16a\yy	.	16cc#\yy	.	.	.	.	.	.	.
.	.	.	16g\JJ)yy	.	16b\JJ)yy	.	.	.	.	.	16g\JJyy	.	16b\JJyy	.	.	.	.	.	.	.
=44	=44	=44	=44	=44	=44	=44	=44	=44	=44	=44	=44	=44	=44	=44	=44	=44	=44	=44	=44	=44
*	*	*	*	*	*	*	*	*	*	*	*	*	*	*	*	*	*	*^	*	*
*	*	*	*	*	*	*	*	*	*2\right	*	*	*	*	*	*	*	*	*	*	*	*
!LO:TX:a:t=P:problem:mixed beam	!	!	!	!	!	!	!	!	!	!	!	!	!	!	!	!	!	!	!	!	!
8A\Lyy	8 6	.	4f#/yy	.	4a/yy	4A\yy	.	.	2A\yy	.	4f#\yy	.	(4a\yy	.	.	8GG/L	8a/Lyy 8A/yy	4a/yy	4f#\yy	4ff#X\yy	4aa\yy
8A\yy	.	.	.	.	.	.	.	.	.	.	.	.	.	.	.	16GG/L	16a/Lyy 16A/yy	.	.	.	.
.	.	.	.	.	.	.	.	.	.	.	.	.	.	.	.	16GG/JJ	16a/JJyy 16A/yy	.	.	.	.
8AA/yy	7 5	.	4e/yy	.	4g/yy	4AA/yy	.	.	.	.	4e\yy	.	4g\)yy	.	.	8GG/L	8a/Lyy 8A/yy	4g/yy	4e\yy	4ee\yy	4gg\yy
8AA/Jyy	.	.	.	.	.	.	.	.	.	.	.	.	.	.	.	8GG/J	8a/Jyy 8A/yy	.	.	.	.
=45	=45	=45	=45	=45	=45	=45	=45	=45	=45	=45	=45	=45	=45	=45	=45	=45	=45	=45	=45	=45	=45
4D\yy	.	.	4d/yy	.	4f#/yy	4D\yy	.	.	4A\yy	.	4d\yy	.	4f#/yy	.	.	4C/	4dd/yy 4d/yy	4f#/yy	4d\yy	4dd\yy	4ff#\yy
4ryy	.	.	4ryy	.	4ryy	4ryy	.	.	4ryy	.	4ryy	.	4ryy	.	.	4r	4ryy	4ryy	4ryy	4ryy	4ryy
*	*	*	*	*	*	*	*	*	*	*	*	*	*	*	*	*	*	*v	*v	*	*
!	!	!	!	!	!	!	!	!	!	!	!LO:LB:g=original	!	!	!	!	!	!	!	!	!
=46	=46	=46	=46	=46	=46	=46	=46	=46	=46	=46	=46	=46	=46	=46	=46	=46	=46	=46	=46	=46
!LO:TX:a:t=3	!	!	!	!	!	!LO:TX:a:t=3	!	!	!LO:TX:a:t=2	!	!LO:TX:a:t=2	!	!LO:TX:a:t=2	!	!	!	!	!LO:TX:a:t=3.	!	!
!LO:N:vis=0	!	!	!	!	!	!LO:N:vis=0	!	!	!LO:N:vis=0	!	!LO:N:vis=0	!	!LO:N:vis=0	!	!	!LO:N:vis=0	!	!LO:N:vis=0	!	!
1ryy	.	.	4ryy	.	4ryy	1ryy	.	.	1ryy	.	1ryy	.	1ryy	.	.	1r	8a/Lyy 8A/yy	1ryy	4ryy	4ryy
.	.	.	.	.	.	.	.	.	.	.	.	.	.	.	.	.	16a/Lyy 16A/yy	.	.	.
.	.	.	.	.	.	.	.	.	.	.	.	.	.	.	.	.	16a/JJyy 16A/yy	.	.	.
.	.	.	8ryy	.	8ryy	.	.	.	.	.	.	.	.	.	.	.	4a/yy 4A/yy	.	8ryy	8ryy
!	!	!	!	!LO:DY:a	!	!	!	!	!	!	!	!	!	!	!	!	!	!	!	!
.	.	.	8f#/yy|	p	8dd\yy	.	.	.	.	.	.	.	.	.	.	.	.	.	8dd\yy	8ff#\yy
!	!	!	!	!	!LO:LB:g=original	!	!	!	!	!	!	!	!	!	!	!	!	!	!	!
=47	=47	=47	=47	=47	=47	=47	=47	=47	=47	=47	=47	=47	=47	=47	=47	=47	=47	=47	=47	=47
!	!	!	!LO:N:vis=8	!	!	!	!	!	!	!	!	!	!	!	!	!	!LO:TX:a:t=1.	!	!	!LO:N:vis=16.
.	.	.	8.e/Lyy	.	8.cc#\Lyy	.	.	.	.	.	.	.	.	.	.	.	2ryy	.	(8.cc#X\Lyy	8.ee\Lyy|
.	.	.	32f#/LLyy	.	32dd\LLyy	.	.	.	.	.	.	.	.	.	.	.	.	.	32dd\LLyy	(32ff#\LLyy
.	.	.	32g/JJJyy	.	32ee\JJJyy	.	.	.	.	.	.	.	.	.	.	.	.	.	32ee\JJJ)yy	32gg\JJJ)yy
.	.	.	4f#/yy	.	4dd\yy	.	.	.	.	.	.	.	.	.	.	.	.	.	4dd\yy	8ff#\yy|
.	.	.	.	.	.	.	.	.	.	.	.	.	.	.	.	.	.	.	.	8ryy
!	!	!	!LO:LB:g=original	!	!	!	!	!	!LO:LB:g=original	!	!	!	!	!	!	!	!LO:LB:g=original	!	!LO:LB:g=original	!LO:LB:g=original
=48	=48	=48	=48	=48	=48	=48	=48	=48	=48	=48	=48	=48	=48	=48	=48	=48	=48	=48	=48	=48
2ryy	.	.	4ryy	.	4ryy	2ryy	.	.	4ryy	.	4ryy	.	4ryy	.	.	2r	8a/Lyy 8A/yy	2ryy	4ryy	4ryy
.	.	.	.	.	.	.	.	.	.	.	.	.	.	.	.	.	16a/Lyy 16A/yy	.	.	.
.	.	.	.	.	.	.	.	.	.	.	.	.	.	.	.	.	16a/JJyy 16A/yy	.	.	.
.	.	.	8ryy	.	8ryy	.	.	.	8ryy	.	8ryy	.	8ryy	.	.	.	4a/yy 4A/yy	.	8ryy	8ryy
.	.	.	8d/yy	.	8ff#\yy	.	.	.	8d\yy	.	8a\yy	.	8ff#\yy	.	.	.	.	.	8dd\yy	8ff#\yy|
!	!	!	!	!	!	!LO:LB:g=original	!	!	!	!	!	!	!LO:LB:g=original	!	!	!	!	!	!	!
!	!	!	!	!	!	!	!	!	!	!	!	!	!	!	!	!LO:LB:g=original	!	!	!	!
=49	=49	=49	=49	=49	=49	=49	=49	=49	=49	=49	=49	=49	=49	=49	=49	=49	=49	=49	=49	=49
*	*	*	*	*	*	*	*	*	*	*	*	*	*	*	*	*	*^	*^	*	*
4ryy	.	.	8.c#/Lyy	.	(8.ee\Lyy	4ryy	.	.	(8.c#\Lyy	.	4a\yy	.	8.ee\Lyy	.	.	4r	4ryy	4ryy	4ryy	4ryy	8.cc#X\Lyy	(8.ee\Lyy
.	.	.	32d/LLyy	.	32ff#\LLyy	.	.	.	32d\LL)yy	.	.	.	32ff#\LLyy	.	.	.	.	.	.	.	32dd\LLyy	32ff#\LLyy
.	.	.	32e/JJJyy	.	32gg\JJJ)yy	.	.	.	32e\JJJyy	.	.	.	32gg\JJJyy	.	.	.	.	.	.	.	32ee\JJJyy	32gg\JJJ)yy
8ryy	.	.	8d/Lyy	.	8ff#\Lyy	8ryy	.	.	8d\yy|	.	8a\yy	.	8ff#\yy	.	.	8r	8ryy	8ryy	8ryy	8ryy	8dd\Lyy|	8ff#\Lyy|
!	!	!	!	!	!	!	!	!	!	!	!	!	!	!	!	!	!LO:SIC:n:=1 s=8eet=lub cc:v	!	!	!	!	!
*	*	*	*	*	*	*	*ij	*	*	*ij	*	*ij	*	*ij	*	*	*	*	*	*	*	*
8D\yy	.	.	8f#/Jyy	.	8dd\Jyy	8D\yy	.	.	8A\yy	.	8f#\yy	.	8dd\yy	.	.	8C/	8ee/yy	8a\yy	8f#/yy	8d\yy	8dd\Jyy|	8ff#\Jyy|
=50	=50	=50	=50	=50	=50	=50	=50	=50	=50	=50	=50	=50	=50	=50	=50	=50	=50	=50	=50	=50	=50	=50
!LO:TX:a:t=P:problem:mixed beam	!	!	!	!	!	!	!	!	!	!	!	!	!	!	!	!	!	!	!	!	!	!
8A\Lyy	7 6	.	8f#/Lyy	.	8dd\Lyy|	8A\yy	.	.	8A\yy	.	8f#\yy	.	8dd\yy	.	.	8C/L	8ff#/Lyy	8dd\Lyy	8f#/Lyy	8d\Lyy	(8dd\Lyy	8ff#\Lyy
8AA/Jyy	.	.	8e/Jyy	.	8cc#\Jyy|	8AA/yy	.	.	8A\yy	.	8e\yy	.	8cc#\yy	.	.	8GG/J	8ee/Jyy	8a\Jyy	8e/Jyy	8A\Jyy	8cc#X\J)yy	8ee\Jyy
*	*	*	*	*	*	*	*	*	*	*	*	*	*	*Xij	*	*	*	*	*	*	*	*
4ryy	.	.	4ryy	.	4ryy	4ryy	.	.	4ryy	.	4ryy	.	4ryy	.	.	4r	4ryy	4ryy	4ryy	4ryy	4ryy	4ryy
*	*	*	*	*	*	*	*	*	*	*	*	*	*	*	*	*	*v	*v	*	*	*	*
*	*	*	*	*	*	*	*	*	*	*	*	*	*	*	*	*	*	*v	*v	*	*
!	!	!	!	!	!	!	!	!	!	!	!	!	!	!	!	!	!	!LO:LB:g=original	!	!
=51	=51	=51	=51	=51	=51	=51	=51	=51	=51	=51	=51	=51	=51	=51	=51	=51	=51	=51	=51	=51
!LO:TX:a:t=3	!	!	!	!	!	!LO:TX:b:t=3.	!	!	!LO:TX:a:t=2	!	!LO:TX:a:t=2	!	!	!	!	!LO:TX:b:t=3.	!	!LO:TX:a:t=3.	!	!
!LO:N:vis=0	!	!	!	!	!	!LO:N:vis=0	!	!	!LO:N:vis=0	!	!LO:N:vis=0	!	!LO:N:vis=0	!	!	!LO:N:vis=0	!	!LO:N:vis=0	!	!
1ryy	.	.	4ryy	.	4ryy	1ryy	.	.	1ryy	.	1ryy	.	1ryy	.	.	1r	8a/Lyy 8A/yy	1ryy	4ryy	4ryy
.	.	.	.	.	.	.	.	.	.	.	.	.	.	.	.	.	16a/Lyy 16A/yy	.	.	.
.	.	.	.	.	.	.	.	.	.	.	.	.	.	.	.	.	16a/JJyy 16A/yy	.	.	.
.	.	.	8ryy	.	8ryy	.	.	.	.	.	.	.	.	.	.	.	4a/yy 4A/yy	.	8ryy	8ryy
.	.	.	8f#/yy	.	8dd\yy	.	.	.	.	.	.	.	.	.	.	.	.	.	8dd\yy	8ff#\yy
=52	=52	=52	=52	=52	=52	=52	=52	=52	=52	=52	=52	=52	=52	=52	=52	=52	=52	=52	=52	=52
!	!	!	!	!	!	!	!	!	!	!	!	!	!	!	!	!	!LO:TX:a:t=1.	!	!	!
.	.	.	8.e/Lyy	.	8.cc#\Lyy	.	.	.	.	.	.	.	.	.	.	.	2ryy	.	8.cc#X\Lyy	(8.ee\Lyy
.	.	.	32f#/LLyy	.	32dd\LLyy	.	.	.	.	.	.	.	.	.	.	.	.	.	(32dd\LLyy	32ff#\LLyy
.	.	.	32g/JJJyy	.	32ee\JJJyy	.	.	.	.	.	.	.	.	.	.	.	.	.	32ee\JJJ)yy	32gg\JJJ)yy
.	.	.	4f#/yy	.	4dd\yy	.	.	.	.	.	.	.	.	.	.	.	.	.	4dd\yy	8ff#\yy
.	.	.	.	.	.	.	.	.	.	.	.	.	.	.	.	.	.	.	.	8ryy
=53	=53	=53	=53	=53	=53	=53	=53	=53	=53	=53	=53	=53	=53	=53	=53	=53	=53	=53	=53	=53
2ryy	.	.	4ryy	.	4ryy	2ryy	.	.	4ryy	.	4ryy	.	4ryy	.	.	2r	8a/Lyy 8A/yy	2ryy	4ryy	4ryy
.	.	.	.	.	.	.	.	.	.	.	.	.	.	.	.	.	16a/Lyy 16A/yy	.	.	.
.	.	.	.	.	.	.	.	.	.	.	.	.	.	.	.	.	16a/JJyy 16A/yy	.	.	.
.	.	.	8ryy	.	8ryy	.	.	.	8ryy	.	8ryy	.	8ryy	.	.	.	4a/yy 4A/yy	.	8ryy	8ryy
.	.	.	8d/yy	.	8ff#\yy	.	.	.	8d\yy	.	8a\yy	.	8ff#\yy	.	.	.	.	.	8dd\yy	8ff#\yy
!LO:LB:g=original	!	!	!	!	!	!	!	!	!	!	!	!	!	!	!	!	!	!	!	!
=54	=54	=54	=54	=54	=54	=54	=54	=54	=54	=54	=54	=54	=54	=54	=54	=54	=54	=54	=54	=54
*	*	*	*	*	*	*	*	*	*	*	*	*	*	*	*	*	*	*^	*	*
4ryy	.	.	8.c#/Lyy	.	(8.ee\Lyy	4ryy	.	.	8.c#\Lyy	.	4a\yy	.	8.ee\Lyy	.	.	4r	4ryy	4ryy	4ryy	(8.cc#X\Lyy	(8.ee\Lyy
.	.	.	32d/LLyy	.	32ff#\LLyy	.	.	.	32d\LLyy	.	.	.	32ff#\LLyy	.	.	.	.	.	.	32dd\LLyy	32ff#\LLyy
.	.	.	32e/JJJyy	.	32gg\JJJ)yy	.	.	.	32e\JJJyy	.	.	.	32gg\JJJyy	.	.	.	.	.	.	32ee\JJJ)yy	32gg\JJJ)yy
!	!	!	!LO:TX:a:t=P:problem:mixed beam	!	!	!	!	!	!	!	!	!	!	!	!	!	!	!	!	!	!
8ryy	.	.	8d/Lyy	.	8ff#\Lyy	8ryy	.	.	8d\yy	.	8a\yy	.	8ff#\yy	.	.	8r	8ryy	8ryy	8ryy	8dd\Lyy|	8ff#\Lyy|
*	*	*	*	*	*	*	*	*	*	*	*	*	*	*ij	*	*	*	*	*	*	*
8D\yy	.	.	8ff#\Jyy	.	8ddd\Jyy	8D\yy	.	.	8A\yy	.	8f#\yy	.	8dd\yy	.	.	8C/	8a/yy 8A/yy	8f#/yy	8d\yy	8dd\Jyy|	8ff#\Jyy|
!	!	!	!	!	!LO:LB:g=original	!	!	!	!	!	!	!	!	!	!	!	!	!	!	!	!
=55	=55	=55	=55	=55	=55	=55	=55	=55	=55	=55	=55	=55	=55	=55	=55	=55	=55	=55	=55	=55	=55
!LO:TX:a:t=P:problem:mixed beam	!	!	!	!	!	!	!	!	!	!	!	!	!	!	!	!	!	!	!	!	!
8A\Lyy	6 4	.	8ff#\Lyy	.	8ddd\Lyy	8A\yy	.	.	8A\yy	.	8f#\yy	.	8dd\yy	.	.	8C/L	8dd/Lyy 8d/yy	8f#/Lyy	8d\Lyy	8dd\Lyy|	8ff#\Lyy|
8AA/Jyy	5 3	.	8ee\Jyy	.	8ccc#\Jyy	8AA/yy	.	.	8A\yy	.	8e\yy	.	8cc#\yy	.	.	8GG/J	8a/Jyy 8A/yy	8e/Jyy	8A\Jyy	8cc#X\Jyy|	8ee\Jyy|
*	*	*	*	*	*	*	*Xij	*	*	*Xij	*	*Xij	*	*Xij	*	*	*	*	*	*	*
8ryy	.	.	16a\LLyy	.	(16a\LLyy	8ryy	.	.	8ryy	.	8ryy	.	8ryy	.	.	4r	8ryy	8ryy	8ryy	8ryy	8ryy
.	.	.	16cc#\yy	.	16cc#\yy	.	.	.	.	.	.	.	.	.	.	.	.	.	.	.	.
8c#\yy	6	.	16ee\yy	.	16ee\yy	8c#\yy	.	.	8c#\yy	.	8a\yy	.	8ee\yy	.	.	.	8a/yy 8A/yy	8e/yy	8A\yy	8a/yy	8ee\yy
.	.	.	16gg\JJyy	.	16gg\JJ)yy	.	.	.	.	.	.	.	.	.	.	.	.	.	.	.	.
!	!	!	!	!	!	!	!	!	!LO:LB:g=original	!	!LO:LB:g=original	!	!	!	!	!	!	!	!	!	!
=56	=56	=56	=56	=56	=56	=56	=56	=56	=56	=56	=56	=56	=56	=56	=56	=56	=56	=56	=56	=56	=56
*2\right	*	*	*	*	*2\right	*2\right	*	*	*	*	*2\right	*	*2\right	*	*	*	*	*	*	*	*2\right
*tremolo	*	*	*	*	*tremolo	*	*	*	*	*	*	*	*	*	*	*	*	*	*	*	*
8d\Lyy	.	.	16ff#\LLyy	.	16ff#\LLyy	2d\yy	.	.	[<2d\yy	.	(<2a\yy	.	[<2ff#\yy	.	.	4C/	4dd/yy 4d/yy	4f#/yy	4d\yy	2a/yy	2ff#\yy
.	.	.	16gg\yy	.	16ff#\yy	.	.	.	.	.	.	.	.	.	.	.	.	.	.	.	.
8d\yy	.	.	16aa\yy	.	16ff#\yy	.	.	.	.	.	.	.	.	.	.	.	.	.	.	.	.
.	.	.	16gg\JJyy	.	16ff#\yy	.	.	.	.	.	.	.	.	.	.	.	.	.	.	.	.
8d\yy	.	.	16ff#\LLyy	.	16ff#\yy	.	.	.	.	.	.	.	.	.	.	4r	4ryy	4ryy	4ryy	.	.
.	.	.	16ee\yy	.	16ff#\yy	.	.	.	.	.	.	.	.	.	.	.	.	.	.	.	.
8d\Jyy	.	.	16dd\yy	.	16ff#\yy	.	.	.	.	.	.	.	.	.	.	.	.	.	.	.	.
.	.	.	16cc#\JJyy	.	16ff#\JJyy	.	.	.	.	.	.	.	.	.	.	.	.	.	.	.	.
*	*	*	*	*	*	*	*	*	*	*	*	*	*	*	*	*	*	*v	*v	*	*
=57	=57	=57	=57	=57	=57	=57	=57	=57	=57	=57	=57	=57	=57	=57	=57	=57	=57	=57	=57	=57
*	*	*	*2\right	*	*	*	*	*	*	*	*	*	*	*	*	*	*	*	*2\right	*
*	*	*	*tremolo	*	*	*	*	*	*	*	*	*	*	*	*	*	*	*	*	*
!	!	!	!	!	!	!	!	!	!	!	!	!	!	!	!	!LO:TX:a:t=5.	!LO:TX:a:t=5.	!LO:TX:a:t=5.	!	!
!	!	!	!	!	!	!	!	!	!	!	!	!	!	!	!	!LO:N:vis=00	!LO:N:vis=00	!LO:N:vis=00	!	!
8G#X\Lyy	7	.	16b\LLyy	.	16ff#\LLyy	2G#X\yy	.	.	2d\]yy	.	2b\)yy	.	2ff#\]yy	.	.	0r	0ryy	0ryy	2b\yy	2ff#\yy
.	.	.	16b\yy	.	16bb\yy	.	.	.	.	.	.	.	.	.	.	.	.	.	.	.
8G#X\yy	.	.	16b\yy	.	16ddd\yy	.	.	.	.	.	.	.	.	.	.	.	.	.	.	.
.	.	.	16b\yy	.	16ccc#\JJyy	.	.	.	.	.	.	.	.	.	.	.	.	.	.	.
8G#X\yy	.	.	16b\yy	.	16bb\LLyy	.	.	.	.	.	.	.	.	.	.	.	.	.	.	.
.	.	.	16b\yy	.	16aa\yy	.	.	.	.	.	.	.	.	.	.	.	.	.	.	.
8G#X\Jyy	.	.	16b\yy	.	16gg#X\yy	.	.	.	.	.	.	.	.	.	.	.	.	.	.	.
.	.	.	16b\JJyy	.	16ff#\JJyy	.	.	.	.	.	.	.	.	.	.	.	.	.	.	.
=58	=58	=58	=58	=58	=58	=58	=58	=58	=58	=58	=58	=58	=58	=58	=58	=58	=58	=58	=58	=58
8c#\Lyy	7	.	16ee\LLyy	.	16ee\LLyy	2c#\yy	.	.	2B\yy	.	(<2b\yy	.	[<2ee\yy	.	.	.	.	.	2b\yy	2ee\yy
.	.	.	16ff#\yy	.	16ee\yy	.	.	.	.	.	.	.	.	.	.	.	.	.	.	.
8c#\yy	.	.	16gg\yy	.	16ee\yy	.	.	.	.	.	.	.	.	.	.	.	.	.	.	.
.	.	.	16ff#\JJyy	.	16ee\yy	.	.	.	.	.	.	.	.	.	.	.	.	.	.	.
!	!	!	!LO:LB:g=original	!	!	!	!	!	!	!	!	!	!	!	!	!	!	!	!	!
8c#\yy	.	.	16ee\LLyy	.	16ee\yy	.	.	.	.	.	.	.	.	.	.	.	.	.	.	.
.	.	.	16dd\yy	.	16ee\yy	.	.	.	.	.	.	.	.	.	.	.	.	.	.	.
8c#\Jyy	.	.	16cc#\yy	.	16ee\yy	.	.	.	.	.	.	.	.	.	.	.	.	.	.	.
.	.	.	16b\JJyy	.	16ee\JJyy	.	.	.	.	.	.	.	.	.	.	.	.	.	.	.
!	!	!	!	!	!	!	!	!	!	!	!	!	!	!	!	!	!	!	!LO:LB:g=original	!
=59	=59	=59	=59	=59	=59	=59	=59	=59	=59	=59	=59	=59	=59	=59	=59	=59	=59	=59	=59	=59
8F#\Lyy	7	.	16a/LLyy	.	(16ee\LLyy	2F#\yy	.	.	2c#\yy	.	2a\)yy	.	2ee\]yy	.	.	.	.	.	2a/yy	2ee\yy
.	.	.	16a/yy	.	16aa\yy	.	.	.	.	.	.	.	.	.	.	.	.	.	.	.
8F#\yy	.	.	16a/yy	.	16ccc#\)yy	.	.	.	.	.	.	.	.	.	.	.	.	.	.	.
.	.	.	16a/yy	.	16bb\JJyy	.	.	.	.	.	.	.	.	.	.	.	.	.	.	.
8F#\yy	.	.	16a/yy	.	(16aa\LLyy	.	.	.	.	.	.	.	.	.	.	.	.	.	.	.
.	.	.	16a/yy	.	16gg#X\yy	.	.	.	.	.	.	.	.	.	.	.	.	.	.	.
8F#\Jyy	.	.	16a/yy	.	16ff#\)yy	.	.	.	.	.	.	.	.	.	.	.	.	.	.	.
.	.	.	16a/JJyy	.	16ee\JJyy	.	.	.	.	.	.	.	.	.	.	.	.	.	.	.
=60	=60	=60	=60	=60	=60	=60	=60	=60	=60	=60	=60	=60	=60	=60	=60	=60	=60	=60	=60	=60
8B\Lyy	7	.	16dd\LLyy	.	16dd\LLyy	2B\yy	.	.	2A\yy	.	2a\yy	.	[<2dd\yy	.	.	.	.	.	2a/yy	2dd\yy
.	.	.	16ee\yy	.	16dd\yy	.	.	.	.	.	.	.	.	.	.	.	.	.	.	.
8B\yy	.	.	16ff#\yy	.	16dd\yy	.	.	.	.	.	.	.	.	.	.	.	.	.	.	.
.	.	.	16ee\JJyy	.	16dd\yy	.	.	.	.	.	.	.	.	.	.	.	.	.	.	.
8B\yy	.	.	16dd\LLyy	.	16dd\yy	.	.	.	.	.	.	.	.	.	.	.	.	.	.	.
.	.	.	16cc#\yy	.	16dd\yy	.	.	.	.	.	.	.	.	.	.	.	.	.	.	.
8B\Jyy	.	.	16b\yy	.	16dd\yy	.	.	.	.	.	.	.	.	.	.	.	.	.	.	.
.	.	.	16a\JJyy	.	16dd\JJyy	.	.	.	.	.	.	.	.	.	.	.	.	.	.	.
*Xtremolo	*	*	*	*	*Xtremolo	*	*	*	*	*	*	*	*	*	*	*	*	*	*	*
!	!	!	!	!	!	!	!	!	!	!	!	!	!LO:LB:g=original	!	!	!	!	!	!	!
=61	=61	=61	=61	=61	=61	=61	=61	=61	=61	=61	=61	=61	=61	=61	=61	=61	=61	=61	=61	=61
!	!	!	!	!	!	!	!	!	!	!	!	!	!LO:SIC:s:o:=:v:brak zakończenia ligatury	!	!	!	!	!	!	!
8E\Lyy	7_ #_	.	16g#X/LLyy	.	16dd\LLyy	2E\yy	.	.	2B\yy	.	2g#X\yy	.	2dd\]yy	.	.	2r	2ryy	2ryy	2g#X/yy	2dd\yy
.	.	.	16g#X/yy	.	16gg#X\yy	.	.	.	.	.	.	.	.	.	.	.	.	.	.	.
8E\yy	.	.	16g#X/yy	.	16bb\yy	.	.	.	.	.	.	.	.	.	.	.	.	.	.	.
.	.	.	16g#X/yy	.	16aa\JJyy	.	.	.	.	.	.	.	.	.	.	.	.	.	.	.
8F#\yy	.	.	16g#X/yy	.	16gg#\LLyy	.	.	.	.	.	.	.	.	.	.	.	.	.	.	.
.	.	.	16g#X/yy	.	16ff#\yy	.	.	.	.	.	.	.	.	.	.	.	.	.	.	.
8G#X\Jyy	.	.	16g#X/yy	.	16ee\yy	.	.	.	.	.	.	.	.	.	.	.	.	.	.	.
.	.	.	16g#X/JJyy	.	16dd\JJyy	.	.	.	.	.	.	.	.	.	.	.	.	.	.	.
!	!	!	!	!	!	!	!	!	!	!	!	!	!	!	!	!	!LO:LB:g=original	!	!	!LO:LB:g=original
=62	=62	=62	=62	=62	=62	=62	=62	=62	=62	=62	=62	=62	=62	=62	=62	=62	=62	=62	=62	=62
!	!	!	!LO:TX:a:t=P:problem:mixed beam	!	!	!	!	!	!	!	!	!	!	!	!	!	!	!	!	!
2A/yy 2AA/yy	.	.	8a/Lyy	.	16cc#\LLyy	[<2A\yy	.	.	(8A\Lyy	.	2a\yy	.	8cc#\Lyy	.	.	4GG/	8a/Lyy 8A`/yy	4A/yy 4AA/yy	8a\Lyy	8cc#X\Lyy
.	.	.	.	.	16a\yy	.	.	.	.	.	.	.	.	.	.	.	.	.	.	.
.	.	.	8ff#\yy	.	16aa\yy	.	.	.	8f#\yy	.	.	.	8aa\yy	.	.	.	8a/yy 8A`/yy	.	8ff#X\yy|	8aa\yy
.	.	.	.	.	16a\JJyy	.	.	.	.	.	.	.	.	.	.	.	.	.	.	.
!	!	!	!	!	!	!	!	!	!	!	!	!	!LO:SIC:s:=:v:8gg#	!	!	!	!	!	!	!
.	.	.	8ee\yy	.	16gg#X\LLyy	.	.	.	8e\yy	.	.	.	8gg\yy	.	.	4r	8a/yy 8A`/yy	4ryy	8ee\yy|	8gg#X\yy
.	.	.	.	.	16a\yy	.	.	.	.	.	.	.	.	.	.	.	.	.	.	.
.	.	.	8dd\Jyy	.	16ff#\yy	.	.	.	8d\J)yy	.	.	.	8ff#\Jyy	.	.	.	8a/Jyy 8A`/yy	.	8dd\Jyy|	8ff#X\Jyy
.	.	.	.	.	16a\JJyy	.	.	.	.	.	.	.	.	.	.	.	.	.	.	.
!	!	!	!	!	!LO:LB:g=original	!LO:LB:g=original	!	!	!	!	!	!	!	!	!	!	!	!	!	!
=63	=63	=63	=63	=63	=63	=63	=63	=63	=63	=63	=63	=63	=63	=63	=63	=63	=63	=63	=63	=63
*	*	*	*	*	*	*	*	*	*	*	*	*	*	*	*	*	*tremolo	*	*	*
!	!	!	!	!	!	!LO:SIC:s:o:=:v:brak zakończenia ligatury	!	!	!	!	!	!	!	!	!	!	!LO:SIC:o:s:=:v:4 kreski artykulacyjne	!	!	!
2A/yy 2AA/yy	.	.	8cc#\Lyy	.	16ee\LLyy	2A\_<yy	.	.	(8c#\Lyy	.	2a\yy	.	8ee\Lyy	.	.	4GG/	8a/yy 8A/Lyy	4A/yy 4AA/yy	8cc#X'\Lyy	8ee\Lyy
.	.	.	.	.	16a\yy	.	.	.	.	.	.	.	.	.	.	.	.	.	.	.
.	.	.	8dd\yy	.	16ff#\yy	.	.	.	8d\yy	.	.	.	8ff#\yy	.	.	.	8a/yy 8A/yy	.	8dd'\yy	8ff#\yy
.	.	.	.	.	16a\JJyy	.	.	.	.	.	.	.	.	.	.	.	.	.	.	.
.	.	.	8cc#\yy	.	16ee\LLyy	.	.	.	8c#\yy	.	.	.	8ee\yy	.	.	4r	8a/yy 8A/yy	4ryy	8cc#'\yy	8ee\yy
.	.	.	.	.	16a\yy	.	.	.	.	.	.	.	.	.	.	.	.	.	.	.
.	.	.	8b\Jyy	.	16dd\yy	.	.	.	8B\J)yy	.	.	.	8dd\Jyy	.	.	.	8a/yy 8A/Jyy	.	8b'\Jyy	8dd\Jyy
.	.	.	.	.	16a\JJyy	.	.	.	.	.	.	.	.	.	.	.	.	.	.	.
=64	=64	=64	=64	=64	=64	=64	=64	=64	=64	=64	=64	=64	=64	=64	=64	=64	=64	=64	=64	=64
!	!	!	!	!	!	!	!	!	!	!	!	!	!	!	!	!	!LO:SIC:o:s:=:v:4 kreski artykulacyjne	!	!	!
2A/yy 2AA/yy	.	.	8a/Lyy	.	8cc#\Lyy	2A\]yy	.	.	[<2A\yy	.	8a\yy	.	8cc#\Lyy	.	.	4GG/	8a/yy 8A/Lyy	4A/yy 4AA/yy	8a'/Lyy	8cc#X\Lyy
.	.	.	8a/yy	.	8ff#\yy	.	.	.	.	.	(8a\Lyy	.	8ff#\yy	.	.	.	8a/yy 8A/yy	.	8a'/yy	8ff#\yy
.	.	.	8g#X/yy	.	8ee\yy	.	.	.	.	.	8g#X\yy	.	8ee\yy	.	.	4r	8a/yy 8A/yy	4ryy	8g#X'/yy	8ee\yy
.	.	.	8f#/Jyy	.	8dd\Jyy	.	.	.	.	.	8f#\J)yy	.	8dd\Jyy	.	.	.	8a/yy 8A/Jyy	.	8f#X'/Jyy	8dd\Jyy
=65	=65	=65	=65	=65	=65	=65	=65	=65	=65	=65	=65	=65	=65	=65	=65	=65	=65	=65	=65	=65
!	!	!	!	!	!	!	!	!	!	!	!	!	!	!	!	!	!LO:SIC:o:s:=:v:4 kreski artykulacyjne	!	!	!
2A/yy 2AA/yy	.	.	8e/Lyy	.	8cc#\Lyy	2A\yy	.	.	2A\_<yy	.	8e\Lyy	.	8cc#\Lyy	.	.	4GG/	8a/yy 8A/Lyy	4A/yy 4AA/yy	8e/Lyy	8cc#\Lyy
.	.	.	8f#/yy	.	8dd\yy	.	.	.	.	.	8f#\yy	.	8dd\yy	.	.	.	8a/yy 8A/yy	.	8f#/yy	8dd\yy
.	.	.	8e/yy	.	8cc#\yy	.	.	.	.	.	8e\yy	.	8cc#\yy	.	.	4r	8a/yy 8A/yy	4ryy	8e/yy	8cc#\yy
.	.	.	8d/Jyy	.	8b\Jyy	.	.	.	.	.	8d\Jyy	.	8b\Jyy	.	.	.	8a/yy 8A/Jyy	.	8d/Jyy	8b\Jyy
=66	=66	=66	=66	=66	=66	=66	=66	=66	=66	=66	=66	=66	=66	=66	=66	=66	=66	=66	=66	=66
*	*	*	*	*	*	*	*	*	*	*	*	*	*	*	*	*	*	*^	*	*
!	!	!	!	!	!	!	!	!	!	!	!	!	!	!	!	!	!LO:SIC:o:s:=:v:4 kreski artykulacyjne	!	!	!	!
8AA/yy	8_ 3_	.	8c#/Lyy	.	(8a/Lyy	2A\yy	.	.	2A\]yy	.	8c#\Lyy|	.	8a\Lyy	.	.	8GG/	8a/yy 8A/Lyy	8e/yy	8A\yy	4a/yy	4cc#X\yy|
8ryy	.	.	16d/Lyy	.	16b/Lyy	.	.	.	.	.	(16d\Lyy	.	16b\Lyy	.	.	8r	8a/yy 8A/yy	8ryy	8ryy	.	.
.	.	.	16e/JJyy	.	16cc#/JJ)yy	.	.	.	.	.	16e\JJ)yy	.	16cc#\JJyy	.	.	.	.	.	.	.	.
8AA/yy	.	.	8c#/Lyy	.	(8a/Lyy	.	.	.	.	.	8c#\Lyy|	.	8a\Lyy	.	.	8GG/	8a/yy 8A/yy	8e/yy	8A\yy	4a/yy	4cc#\yy|
8ryy	.	.	16d/Lyy	.	16b/Lyy	.	.	.	.	.	(16d\Lyy	.	16b\Lyy	.	.	8r	8a/yy 8A/Jyy	8ryy	8ryy	.	.
.	.	.	16e/JJyy	.	16cc#/JJ)yy	.	.	.	.	.	16e\JJ)yy	.	16cc#\JJyy	.	.	.	.	.	.	.	.
*	*	*	*	*	*	*	*	*	*	*	*	*	*	*	*	*	*Xtremolo	*	*	*	*
=67	=67	=67	=67	=67	=67	=67	=67	=67	=67	=67	=67	=67	=67	=67	=67	=67	=67	=67	=67	=67	=67
!	!	!	!	!	!	!	!	!	!	!	!	!	!	!	!	!LO:N:vis=8	!	!	!	!	!
4AA/yy	.	.	4c#/yy	.	4a/yy	4A\yy	.	.	4A\yy	.	4c#\yy	.	4a\yy	.	.	4GG/	4a/yy 4A/yy	4e/yy	4A\yy	4a/yy	4cc#\yy|
16A'\LLyy	.	.	4ryy	.	4ryy	4ryy	.	.	4ryy	.	4ryy	.	4ryy	.	.	4r	4ryy	4ryy	4ryy	4ryy	4ryy
16G'\yy	.	.	.	.	.	.	.	.	.	.	.	.	.	.	.	.	.	.	.	.	.
16F#'\yy	.	.	.	.	.	.	.	.	.	.	.	.	.	.	.	.	.	.	.	.	.
16E'\JJyy	.	.	.	.	.	.	.	.	.	.	.	.	.	.	.	.	.	.	.	.	.
*	*	*	*	*	*	*	*	*	*	*	*	*	*	*	*	*	*	*v	*v	*	*
!	!	!	!	!	!	!	!	!	!LO:LB:g=original	!	!LO:LB:g=original	!	!	!	!	!	!	!	!	!
=68	=68	=68	=68	=68	=68	=68	=68	=68	=68	=68	=68	=68	=68	=68	=68	=68	=68	=68	=68	=68
!	!	!	!	!	!LO:TX:b:t=3.	!LO:TX:a:t=2	!	!	!LO:TX:a:t=2	!	!	!	!	!	!	!LO:TX:b:t=22.	!	!LO:TX:b:t=22.	!LO:TX:a:t=12.	!LO:TX:a:t=12.
!	!	!	!LO:N:vis=0	!	!LO:N:vis=0	!LO:N:vis=0	!	!	!LO:N:vis=0	!	!	!	!	!	!	!	!	!	!	!
4D\yy	.	.	1ryy	.	1ryy	1ryy	.	.	1ryy	.	4ryy	.	4ryy	.	.	2r	8d/Lyy	2ryy	2ryy	2ryy
.	.	.	.	.	.	.	.	.	.	.	.	.	.	.	.	.	16d/Lyy	.	.	.
.	.	.	.	.	.	.	.	.	.	.	.	.	.	.	.	.	16d/JJyy	.	.	.
4ryy	.	.	.	.	.	.	.	.	.	.	8ryy	.	8ryy	.	.	.	4d/yy	.	.	.
.	.	.	.	.	.	.	.	.	.	.	8a\yy	.	8ccn\yy	.	.	.	.	.	.	.
=69	=69	=69	=69	=69	=69	=69	=69	=69	=69	=69	=69	=69	=69	=69	=69	=69	=69	=69	=69	=69
!LO:TX:a:t=2	!	!	!	!	!	!	!	!	!	!	!	!	!LO:SIC:s:=:v:8ccn	!	!	!	!LO:TX:a:t=1.	!	!	!
!LO:N:vis=0	!	!	!	!	!	!	!	!	!	!	!	!	!	!	!	!	!	!	!	!
1ryy	.	.	.	.	.	.	.	.	.	.	8a\Lyy	.	8cc#\Lyy	.	.	2r	2ryy	2ryy	2ryy	2ryy
.	.	.	.	.	.	.	.	.	.	.	8gn\Jyy	.	8b\Jyy	.	.	.	.	.	.	.
.	.	.	.	.	.	.	.	.	.	.	4g\yy	.	4b\yy	.	.	.	.	.	.	.
=70	=70	=70	=70	=70	=70	=70	=70	=70	=70	=70	=70	=70	=70	=70	=70	=70	=70	=70	=70	=70
.	.	.	2ryy	.	2ryy	4ryy	.	.	4ryy	.	4ryy	.	4ryy	.	.	2r	8d/Lyy	2ryy	2ryy	2ryy
.	.	.	.	.	.	.	.	.	.	.	.	.	.	.	.	.	16d/Lyy	.	.	.
.	.	.	.	.	.	.	.	.	.	.	.	.	.	.	.	.	16d/JJyy	.	.	.
.	.	.	.	.	.	8ryy	.	.	8ryy	.	8ryy	.	8ryy	.	.	.	4d/yy	.	.	.
*	*	*	*	*	*	*	*	*	*	*	*	*ij	*	*ij	*	*	*	*	*	*
.	.	.	.	.	.	8D\yy	.	.	8d\yy	el-	8a\yy	.	8ff#\yy	.	.	.	.	.	.	.
=71	=71	=71	=71	=71	=71	=71	=71	=71	=71	=71	=71	=71	=71	=71	=71	=71	=71	=71	=71	=71
!	!	!	!	!	!	!	!	!	!	!	!	!	!	!	!	!	!LO:TX:a:t=1.	!	!	!
4ryy	.	.	4ryy	.	4ryy	4G\yy	.	.	4d\yy	.i-	8a\Lyy	.	8ff#\Lyy	.	.	2r	2ryy	2ryy	2ryy	2ryy
.	.	.	.	.	.	.	.	.	.	.	8b\Jyy	.	8gg\Jyy	.	.	.	.	.	.	.
!	!	!	!	!	!	!	!	!	!	!	!	!	!LO:LB:g=original	!	!	!	!	!	!	!
8ryy	.	.	8ryy	.	8ryy	8G\yy	.	.	8d\yy	.	8b\yy	.	8gg\yy	.	.	.	.	.	.	.
*	*	*	*	*	*	*	*ij	*	*	*ij	*	*Xij	*	*Xij	*	*	*	*	*	*
8Cn/yy	3 1	.	8ccn\yy	.	8ee\yy	8cn\yy	.	.	8e\yy	.	8ccn\yy	.	8ee\yy	.	.	.	.	.	.	.
!LO:LB:g=original	!	!	!	!	!	!	!	!	!	!	!	!	!	!	!	!	!	!	!	!
=72	=72	=72	=72	=72	=72	=72	=72	=72	=72	=72	=72	=72	=72	=72	=72	=72	=72	=72	=72	=72
4D\yy	8 6	.	8b/Lyy	.	(8dd\Lyy	(4d\yy	.	.	2d\yy	.	(8b\Lyy	.	8dd\Lyy	.	.	2r	8d/Lyy	2ryy	2ryy	2ryy
.	-7 5	.	8a/yy	.	8ccn\yy	.	.	.	.	.	8a\yy	.	8ccn\yy	.	.	.	16d/Lyy	.	.	.
.	.	.	.	.	.	.	.	.	.	.	.	.	.	.	.	.	16d/JJyy	.	.	.
!LO:SIC:o:s:=:v:niezrozumiałe cyfrowanie	!	!	!	!	!	!	!	!	!	!	!	!	!	!	!	!	!	!	!	!
4D\yy	6 4	.	8g/yy	.	8b\yy	4D/)yy	.	.	.	.	8g\yy	.	8b\yy	.	.	.	8d/Lyy	.	.	.
.	5 3	.	8f#/Jyy	.	8a\J)yy	.	.	.	.	.	8f#\J)yy	.	8a\Jyy	.	.	.	8d/Jyy	.	.	.
=73	=73	=73	=73	=73	=73	=73	=73	=73	=73	=73	=73	=73	=73	=73	=73	=73	=73	=73	=73	=73
8G\Lyy	.	.	4g/yy	.	4g/yy	4G\yy	.	.	4d\yy	.	4g\yy	.	4g\yy	.	.	2r	4d/yy	2ryy	2ryy	2ryy
*	*	*	*	*	*	*	*Xij	*	*	*Xij	*	*	*	*	*	*	*	*	*	*
8D\Jyy	.	.	.	.	.	.	.	.	.	.	.	.	.	.	.	.	.	.	.	.
4GG/yy	.	.	4ryy	.	4ryy	4ryy	.	.	4ryy	.	4ryy	.	4ryy	.	.	.	4ryy	.	.	.
!	!	!	!LO:LB:g=original	!	!	!	!	!	!	!	!	!	!	!	!	!	!LO:LB:g=original	!	!	!
=74	=74	=74	=74	=74	=74	=74	=74	=74	=74	=74	=74	=74	=74	=74	=74	=74	=74	=74	=74	=74
!LO:TX:a:t=3	!	!	!	!	!	!LO:TX:a:t=2	!	!	!LO:TX:a:t=2	!	!	!	!	!	!	!	!LO:TX:b:t=6.	!	!	!
!LO:N:vis=0	!	!	!	!	!	!LO:N:vis=0	!	!	!LO:N:vis=0	!	!	!	!	!	!	!	!LO:N:vis=00	!	!	!
1ryy	.	.	8e/Lyy	.	8e/Lyy	1ryy	.	.	1ryy	.	4ryy	.	4ryy	.	.	2r	0ryy	2ryy	2ryy	2ryy
.	.	.	16e/Lyy	.	16e/Lyy	.	.	.	.	.	.	.	.	.	.	.	.	.	.	.
.	.	.	16e/JJyy	.	16e/JJyy	.	.	.	.	.	.	.	.	.	.	.	.	.	.	.
.	.	.	4e/yy	.	4e/yy	.	.	.	.	.	8ryy	.	8ryy	.	.	.	.	.	.	.
*	*	*	*	*	*	*	*	*	*	*	*	*ij	*	*ij	*	*	*	*	*	*
.	.	.	.	.	.	.	.	.	.	.	8b\yy	.	8dd\yy	.	.	.	.	.	.	.
=75	=75	=75	=75	=75	=75	=75	=75	=75	=75	=75	=75	=75	=75	=75	=75	=75	=75	=75	=75	=75
!	!	!	!LO:TX:a:t=1.	!	!LO:TX:b:t=1.	!	!	!	!	!	!	!	!	!	!	!	!	!	!	!
.	.	.	2ryy	.	2ryy	.	.	.	.	.	8b\Lyy	.	8dd\Lyy	.	.	2r	.	2ryy	2ryy	2ryy
.	.	.	.	.	.	.	.	.	.	.	8a\Jyy	.	8cc#X\Jyy	.	.	.	.	.	.	.
.	.	.	.	.	.	.	.	.	.	.	4a\yy	.	4cc#\yy	.	.	.	.	.	.	.
!	!	!	!	!	!LO:LB:g=original	!	!	!	!	!	!LO:LB:g=original	!	!	!	!	!	!	!	!	!
=76	=76	=76	=76	=76	=76	=76	=76	=76	=76	=76	=76	=76	=76	=76	=76	=76	=76	=76	=76	=76
2ryy	.	.	8e/Lyy	.	8e/Lyy	4ryy	.	.	4ryy	.	4ryy	.	4ryy	.	.	2r	.	2ryy	2ryy	2ryy
.	.	.	16e/Lyy	.	16e/Lyy	.	.	.	.	.	.	.	.	.	.	.	.	.	.	.
.	.	.	16e/JJyy	.	16e/JJyy	.	.	.	.	.	.	.	.	.	.	.	.	.	.	.
.	.	.	4e/yy	.	8e/yy	8ryy	.	.	8ryy	.	8ryy	.	8ryy	.	.	.	.	.	.	.
.	.	.	.	.	8ryy	8E\yy	.	.	8e\yy	.	8b\yy	.	8gg#X\yy	.	.	.	.	.	.	.
=77	=77	=77	=77	=77	=77	=77	=77	=77	=77	=77	=77	=77	=77	=77	=77	=77	=77	=77	=77	=77
!	!	!	!	!	!	!	!	!	!	!	!	!	!LO:SIC:s:=:v:8gg#	!	!	!	!	!	!	!
4ryy	.	.	4ryy	.	4ryy	4A\yy	.	.	4e\yy	.	8b\Lyy	.	8gg\Lyy	.	.	2r	.	2ryy	2ryy	2ryy
.	.	.	.	.	.	.	.	.	.	.	8cc#X\Jyy	.	8aa\Jyy	.	.	.	.	.	.	.
8ryy	.	.	8ryy	.	8ryy	8A\yy	.	.	8e\yy	.	8cc#\yy	.	8aa\yy	.	.	.	.	.	.	.
*	*	*	*	*	*	*	*	*	*	*	*	*Xij	*	*	*	*	*	*	*	*
8D\yy	.	.	8dd\yy	.	8ff#\yy	8d\yy	.	.	8f#\yy	.	8dd\yy	.	8ff#\yy	.	.	.	.	.	.	.
=78	=78	=78	=78	=78	=78	=78	=78	=78	=78	=78	=78	=78	=78	=78	=78	=78	=78	=78	=78	=78
!	!	!	!	!	!	!	!	!	!	!	!	!	!	!	!	!	!LO:N:vis=0	!	!	!
4E\yy	8 6	.	8cc#X\Lyy	.	(8ee\Lyy	(4e\yy	.	.	2e\yy	.	(8cc#\Lyy	.	8ee\Lyy	.	.	2r	1ryy	2ryy	2ryy	2ryy
.	.	.	8b\yy	.	8dd\yy	.	.	.	.	.	8b\yy	.	8dd\yy	.	.	.	.	.	.	.
4E\yy	7 5	.	8a\yy	.	8cc#X\yy	4E\)yy	.	.	.	.	8a\yy	.	8cc#\yy	.	.	.	.	.	.	.
.	6 4	.	8g#X\Jyy	.	8b\J)yy	.	.	.	.	.	8g#X\J)yy	.	8b\Jyy	.	.	.	.	.	.	.
.	5 3	.	.	.	.	.	.	.	.	.	.	.	.	.	.	.	.	.	.	.
!	!	!	!	!	!	!LO:LB:g=original	!	!	!	!	!	!	!	!	!	!	!	!	!	!
=79	=79	=79	=79	=79	=79	=79	=79	=79	=79	=79	=79	=79	=79	=79	=79	=79	=79	=79	=79	=79
!	!	!	!LO:SIC:t:=:v:4 kreski artykulacyjne	!	!	!	!	!	!	!	!	!	!	!	!	!	!	!	!	!
4AA/yy	.	.	8a/Lyy	.	4a/yy	4A\yy	.	.	4e\yy	.	8a\yy	.	4a\yy	.	.	2r	.	2ryy	2ryy	2ryy
*	*	*	*	*	*	*	*	*	*	*	*	*ij	*	*Xij	*	*	*	*	*	*
.	.	.	8a/yy	.	.	.	.	.	.	.	8a\yy	.	.	.	.	.	.	.	.	.
!	!	!LO:DY:b	!	!	!	!	!	!	!	!	!	!	!	!	!	!	!	!	!	!
4ryy	.	p	8a/yy	.	4ryy	4ryy	.	.	4ryy	.	8a\yy	.	4ryy	.	.	.	.	.	.	.
.	.	.	8a/Jyy	.	.	.	.	.	.	.	8a\yy	.	.	.	.	.	.	.	.	.
*	*	*	*Xtremolo	*	*	*	*	*	*	*	*	*Xij	*	*	*	*	*	*	*	*
!	!	!	!	!	!	!	!	!	!LO:LB:g=original	!	!	!	!	!	!	!	!	!	!	!
=80	=80	=80	=80	=80	=80	=80	=80	=80	=80	=80	=80	=80	=80	=80	=80	=80	=80	=80	=80	=80
!	!	!	!	!	!	!	!	!LO:DY:a	!	!	!	!	!	!	!LO:DY:a	!	!	!	!	!
4C#/yy	6	.	8ryy	.	8ryy	2C#/yy	.	p	2c#\yy	.	[<2a\yy	.	2ggn\yy	.	p	2r	4a/yy 4A/yy	2ryy	2ee\yy	2gg\yy
.	.	.	8a/Lyy|	.	8ggn\Lyy	.	.	.	.	.	.	.	.	.	.	.	.	.	.	.
4ryy	.	.	8a/yy|	.	8gg\yy	.	.	.	.	.	.	.	.	.	.	.	4ryy	.	.	.
.	.	.	8a/Jyy|	.	8gg\Jyy	.	.	.	.	.	.	.	.	.	.	.	.	.	.	.
!	!	!	!	!	!	!	!	!	!	!	!	!	!LO:LB:g=original	!	!	!	!	!	!	!
=81	=81	=81	=81	=81	=81	=81	=81	=81	=81	=81	=81	=81	=81	=81	=81	=81	=81	=81	=81	=81
4D\yy	5	.	8ryy	.	8ryy	2D/yy	.	.	2d\yy	.	2a\_<yy	.	2ff#\yy	.	.	2r	4a/yy 4A/yy	2ryy	2dd\yy	2ff#X\yy
.	.	.	8a/Lyy|	.	8ff#\Lyy	.	.	.	.	.	.	.	.	.	.	.	.	.	.	.
4ryy	.	.	8a/yy|	.	8ff#\yy	.	.	.	.	.	.	.	.	.	.	.	4ryy	.	.	.
.	.	.	8a/Jyy|	.	8ff#\Jyy	.	.	.	.	.	.	.	.	.	.	.	.	.	.	.
=82	=82	=82	=82	=82	=82	=82	=82	=82	=82	=82	=82	=82	=82	=82	=82	=82	=82	=82	=82	=82
4E\yy	6	.	8ryy	.	8ryy	2E\yy	.	.	2e\yy	.	2a\_<yy	.	2cc#\yy	.	.	2r	4a/yy 4A/yy	2ryy	2g/yy	2cc#X\yy
.	.	.	8a/Lyy|	.	8cc#'\Lyy	.	.	.	.	.	.	.	.	.	.	.	.	.	.	.
4ryy	.	.	8a/yy|	.	8cc#'\yy	.	.	.	.	.	.	.	.	.	.	.	4ryy	.	.	.
.	.	.	8a/Jyy|	.	8cc#'\Jyy	.	.	.	.	.	.	.	.	.	.	.	.	.	.	.
!	!	!	!	!	!	!	!	!	!	!	!LO:LB:g=original	!	!	!	!	!	!	!	!	!
=83	=83	=83	=83	=83	=83	=83	=83	=83	=83	=83	=83	=83	=83	=83	=83	=83	=83	=83	=83	=83
4F#\yy	6	.	8ryy	.	8ryy	2F#\yy	.	.	2f#\yy	.	2a\]yy	.	2dd\yy	.	.	2r	4a/yy 4A/yy	2ryy	2a/yy	2dd\yy
.	.	.	8a/Lyy|	.	8dd\Lyy	.	.	.	.	.	.	.	.	.	.	.	.	.	.	.
4ryy	.	.	8a/yy|	.	8dd\yy	.	.	.	.	.	.	.	.	.	.	.	4ryy	.	.	.
.	.	.	8a/Jyy|	.	8dd\Jyy	.	.	.	.	.	.	.	.	.	.	.	.	.	.	.
=84	=84	=84	=84	=84	=84	=84	=84	=84	=84	=84	=84	=84	=84	=84	=84	=84	=84	=84	=84	=84
4C#\yy	6	.	8ryy	.	8ryy	2C#/yy	.	.	2e\yy	.	[<2a\yy	.	2gg\yy	.	.	2r	4a/yy 4A/yy	2ryy	2cc#X\yy	2gg\yy
.	.	.	8a/Lyy|	.	8gg\Lyy	.	.	.	.	.	.	.	.	.	.	.	.	.	.	.
4ryy	.	.	8a/yy|	.	8gg\yy	.	.	.	.	.	.	.	.	.	.	.	4ryy	.	.	.
.	.	.	8a/Jyy|	.	8gg\Jyy	.	.	.	.	.	.	.	.	.	.	.	.	.	.	.
=85	=85	=85	=85	=85	=85	=85	=85	=85	=85	=85	=85	=85	=85	=85	=85	=85	=85	=85	=85	=85
4D\yy	6	.	8ryy	.	8ryy	2D/yy	.	.	2d\yy	.	2a\]yy	.	2ff#\yy	.	.	2r	4a/yy 4A/yy	2ryy	2dd\yy	2ff#X\yy
.	.	.	8a/Lyy|	.	8ff#\Lyy	.	.	.	.	.	.	.	.	.	.	.	.	.	.	.
4ryy	.	.	8a/yy|	.	8ff#\yy	.	.	.	.	.	.	.	.	.	.	.	4ryy	.	.	.
.	.	.	8a/Jyy|	.	8ff#\Jyy	.	.	.	.	.	.	.	.	.	.	.	.	.	.	.
!	!	!	!	!	!	!	!	!	!	!	!	!	!	!	!	!	!	!	!LO:LB:g=original	!
=86	=86	=86	=86	=86	=86	=86	=86	=86	=86	=86	=86	=86	=86	=86	=86	=86	=86	=86	=86	=86
4E\yy	6	.	8ryy	.	8ryy	2E\yy	.	.	2e\yy	.	2a\yy	.	2cc#\yy	.	.	2r	4a/yy 4A/yy	2ryy	2g/yy	2cc#X\yy
.	.	.	8a/Lyy|	.	8cc#\Lyy	.	.	.	.	.	.	.	.	.	.	.	.	.	.	.
4ryy	.	.	8a/yy|	.	8cc#\yy	.	.	.	.	.	.	.	.	.	.	.	4ryy	.	.	.
.	.	.	8a/Jyy|	.	8cc#\Jyy	.	.	.	.	.	.	.	.	.	.	.	.	.	.	.
!	!	!	!LO:LB:g=original	!	!LO:LB:g=original	!	!	!	!	!	!	!	!	!	!	!	!	!	!	!
=87	=87	=87	=87	=87	=87	=87	=87	=87	=87	=87	=87	=87	=87	=87	=87	=87	=87	=87	=87	=87
4F#\yy	6	.	8ryy	.	8ryy	4F#\yy	.	.	4.f#\yy	.	4.a\yy	.	4.dd\yy	.	.	2r	4a/yy 4A/yy	2ryy	2a/yy	2dd\yy
.	.	.	8a/Lyy	.	8dd\Lyy	.	.	.	.	.	.	.	.	.	.	.	.	.	.	.
4D\yy	.	.	8a/yy	.	8dd\yy	4D\yy	.	.	.	.	.	.	.	.	.	.	4ryy	.	.	.
.	.	.	8fn/Jyy	.	8dd\Jyy	.	.	.	8B\yy	.	8fn\yy	.	8dd\yy	.	.	.	.	.	.	.
=88	=88	=88	=88	=88	=88	=88	=88	=88	=88	=88	=88	=88	=88	=88	=88	=88	=88	=88	=88	=88
!	!	!	!	!	!	!	!	!	!	!	!	!	!	!	!	!	!LO:TX:a:t=2.	!	!	!
!	!	!	!	!	!	!	!	!	!	!	!	!	!	!	!	!	!LO:N:vis=0	!	!	!
8A\Lyy	#	.	8e/Lyy|	.	(8cc#\Lyy	8A\Lyy	.	.	(8A\Lyy	.	(8e\Lyy	.	(8cc#\Lyy	.	.	2r	1ryy	2ryy	8e/Lyy	(8cc#X\Lyy
!	!	!	!	!	!	!	!	!	!	!	!LO:SIC:s:=:v:8fn	!	!	!	!	!	!	!	!	!
8G#X\yy	.	.	8fn/yy|	.	8dd\)yy	8G#X\yy	.	.	8B\)yy	.	8f#\J)yy	.	8dd\)yy	.	.	.	.	.	8fn/yy	8dd\yy
8A\yy	n7	.	8e/yy|	.	(8cc#\yy	8A\yy	.	.	(8A\yy	.	(8e\Lyy	.	(8cc#\yy	.	.	.	.	.	8e/yy	8cc#\yy
!	!	!	!	!	!	!	!	!	!	!	!LO:SIC:s:=:v:8f	!	!	!	!	!	!	!	!	!
8G#\Jyy	.	.	8f/Jyy	.	8dd\J)yy	8G#\Jyy	.	.	8B\J)yy	.	8f#\J)yy	.	8dd\J)yy	.	.	.	.	.	8f/Jyy	8dd\J)yy
=89	=89	=89	=89	=89	=89	=89	=89	=89	=89	=89	=89	=89	=89	=89	=89	=89	=89	=89	=89	=89
4A\yy	#	.	4e/yy	.	4cc#\yy	4A\yy	.	.	4A\yy	.	4e\yy	.	4cc#\yy	.	.	2r	.	2ryy	4e/yy	4cc#\yy|
16A'\LLyy	.	.	4ryy	.	4ryy	4ryy	.	.	4ryy	.	4ryy	.	4ryy	.	.	.	.	.	4ryy	4ryy
16Gn'\yy	.	.	.	.	.	.	.	.	.	.	.	.	.	.	.	.	.	.	.	.
16F#'\yy	.	.	.	.	.	.	.	.	.	.	.	.	.	.	.	.	.	.	.	.
16E'\JJyy	.	.	.	.	.	.	.	.	.	.	.	.	.	.	.	.	.	.	.	.
!LO:LB:g=original	!	!	!	!	!	!	!	!	!	!	!	!	!	!	!	!LO:LB:g=original	!	!LO:LB:g=original	!	!LO:LB:g=original
=90	=90	=90	=90	=90	=90	=90	=90	=90	=90	=90	=90	=90	=90	=90	=90	=90	=90	=90	=90	=90
*	*	*	*	*	*	*	*	*	*	*	*	*	*	*	*	*	*	*^	*	*
!LO:TX:a:t=Tutti	!	!	!	!	!	!	!	!	!	!	!	!	!	!	!	!	!	!	!	!	!
!LO:TX:a:t=P:problem:mixed beam	!	!	!	!	!	!LO:TX:a:t=Tu.	!	!	!	!	!	!	!	!	!LO:DY:a	!LO:TX:a:t=Tuti	!	!	!	!	!
8D\Lyy	.	.	4.f#X/yy	.	4.dd\yy	8D\Lyy	.	.	4A\yy	.	4.f#X\yy	.	4.dd\yy	.	f	4.C/	8dd/Lyy 8d/yy	4.d/yy	4.F#\yy	4.f#X/yy	4.dd\yy
8F#\yy	.	.	.	.	.	8F#\yy	.	.	.	.	.	.	.	.	.	.	16dd/Lyy 16d/yy	.	.	.	.
.	.	.	.	.	.	.	.	.	.	.	.	.	.	.	.	.	16dd/JJyy 16d/yy	.	.	.	.
8A\yy	.	.	.	.	.	8A\Jyy	.	.	4A\yy	.	.	.	.	.	.	.	8dd/Lyy 8d/yy	.	.	.	.
8AA/Jyy	.	.	16g/LLyy	.	(16ee\LLyy	8AA/yy	.	.	.	.	(16g\LLyy	.	(16ee\LLyy	.	.	8GG/	8a/Jyy 8A/yy	8e/yy	8A\yy	(16g/LLyy	(16ee\LLyy
.	.	.	16e/JJyy	.	16cc#\JJ)yy	.	.	.	.	.	16e\JJ)yy	.	16cc#\JJ)yy	.	.	.	.	.	.	16e/JJ)yy	16cc#\JJ)yy
!	!	!	!	!	!	!	!	!	!LO:LB:g=original	!	!	!	!	!	!	!	!	!	!	!	!
=91	=91	=91	=91	=91	=91	=91	=91	=91	=91	=91	=91	=91	=91	=91	=91	=91	=91	=91	=91	=91	=91
4D\yy	.	.	8f#/Lyy	.	8dd\Lyy	4D\yy	.	.	4A\yy	.	8f#\yy	.	8dd\yy	.	.	4C/	4dd/yy 4d/yy	4d/yy	4F#\yy	8f#/Lyy	8dd\Lyy
.	.	.	8b/yy	.	8gg\yy|	.	.	.	.	.	(8b\Lyy	.	8gg\Lyy	.	.	.	.	.	.	8b/yy	8gg\yy
4ryy	.	.	8a/yy	.	8ff#\yy|	4ryy	.	.	4ryy	.	8a\yy	.	8ff#\yy	.	.	4r	4ryy	4ryy	4ryy	8a/yy	8ff#\yy
.	.	.	8g/Jyy	.	8ee\Jyy|	.	.	.	.	.	8g\J)yy	.	8ee\Jyy	.	.	.	.	.	.	8g/Jyy	8ee\Jyy
=92	=92	=92	=92	=92	=92	=92	=92	=92	=92	=92	=92	=92	=92	=92	=92	=92	=92	=92	=92	=92	=92
!LO:TX:a:t=P:problem:mixed beam	!	!	!	!	!	!	!	!	!	!	!	!	!	!	!	!	!	!	!	!	!
*	*	*	*	*	*	*	*ij	*	*	*ij	*	*	*	*	*	*	*	*	*	*	*
8D\Lyy	.	.	4.f#/yy	.	4.dd\yy	8D\Lyy	.	.	4A\yy	.	4.f#\yy	.	4.dd\yy	.	.	4.C/	8dd/Lyy 8d/yy	4.d/yy	4.F#\yy	4.f#/yy	4.dd\yy
8F#\yy	.	.	.	.	.	8F#\yy	.	.	.	.	.	.	.	.	.	.	16dd/Lyy 16d/yy	.	.	.	.
.	.	.	.	.	.	.	.	.	.	.	.	.	.	.	.	.	16dd/JJyy 16d/yy	.	.	.	.
8A\yy	.	.	.	.	.	8A\Jyy	.	.	4A\yy	.	.	.	.	.	.	.	8dd/Lyy 8d/yy	.	.	.	.
8AA/Jyy	.	.	16g/LLyy	.	(16ee\LLyy	8AA/yy	.	.	.	.	(16g\LLyy	.	(16ee\LLyy	.	.	8GG/	8a/Jyy 8A/yy	8e/yy	8A\yy	(16g/LLyy	(16ee\LLyy
.	.	.	16e/JJyy	.	16cc#\JJ)yy	.	.	.	.	.	16e\JJ)yy	.	16cc#\JJ)yy	.	.	.	.	.	.	16e/JJ)yy	16cc#\JJ)yy
!	!	!	!	!	!	!LO:LB:g=original	!	!	!	!	!LO:LB:g=original	!	!LO:LB:g=original	!	!	!	!	!	!	!	!
=93	=93	=93	=93	=93	=93	=93	=93	=93	=93	=93	=93	=93	=93	=93	=93	=93	=93	=93	=93	=93	=93
4D\yy	.	.	8f#/Lyy	.	8dd\Lyy	4D\yy	.	.	4A\yy	.	(8f#\Lyy	.	8dd\Lyy	.	.	4C/	4dd/yy 4d/yy	4d/yy	4F#\yy	8f#/Lyy|	8dd\Lyy
*	*	*	*	*	*	*	*Xij	*	*	*Xij	*	*	*	*	*	*	*	*	*	*	*
.	.	.	8g/yy	.	8bb\yy	.	.	.	.	.	8g\Jyy	.	8bb\yy	.	.	.	.	.	.	8g/yy|	8bb\yy
4ryy	.	.	8f#/yy	.	8aa\yy	4ryy	.	.	4ryy	.	8f#\Lyy	.	8aa\yy	.	.	4r	4ryy	4ryy	4ryy	8f#/yy|	8aa\yy
.	.	.	8e/Jyy	.	8gg\Jyy	.	.	.	.	.	8e\J)yy	.	8gg\Jyy	.	.	.	.	.	.	8e/Jyy|	8gg\Jyy
*	*	*	*	*	*	*	*	*	*	*	*	*	*	*	*	*	*	*v	*v	*	*
!	!	!	!	!	!	!	!	!	!	!	!	!	!	!	!	!	!LO:LB:g=original	!	!	!
=94	=94	=94	=94	=94	=94	=94	=94	=94	=94	=94	=94	=94	=94	=94	=94	=94	=94	=94	=94	=94
!	!	!	!LO:TX:a:t=P:problem:mixed beam	!	!	!	!	!	!	!	!	!	!	!	!	!LO:TX:a:t=1.	!LO:TX:b:t=1.	!LO:TX:a:t=1.	!	!
4ryy	.	.	8d/Lyy	.	4ff#\yy	4ryy	.	.	4ryy	.	(8d\Lyy	.	4ff#\yy	.	.	2r	2ryy	2ryy	4d/yy	4ff#\yy
.	.	.	8dd\Jyy	.	.	.	.	.	.	.	8dd\Jyy	.	.	.	.	.	.	.	.	.
8ryy	.	.	16cc#\LLyy	.	(16ee\LLyy	8ryy	.	.	8ryy	.	16cc#\LLyy	.	16ee\LLyy	.	.	.	.	.	4ryy	4ryy
.	.	.	16b\yy	.	16dd\yy	.	.	.	.	.	16b\yy	.	(16dd\yy	.	.	.	.	.	.	.
8G\yy|	3 1	.	16a\yy	.	16cc#\yy	8G\yy	.	.	8B\yy	.	16a\yy	.	16cc#\)yy	.	.	.	.	.	.	.
.	.	.	16g\JJyy	.	16b\JJ)yy	.	.	.	.	.	16g\JJ)yy	.	16b\JJyy	.	.	.	.	.	.	.
=95	=95	=95	=95	=95	=95	=95	=95	=95	=95	=95	=95	=95	=95	=95	=95	=95	=95	=95	=95	=95
*	*	*	*	*	*	*	*	*	*	*	*	*	*	*	*	*	*	*^	*	*
!LO:TX:a:t=P:problem:mixed beam	!	!	!	!	!	!	!	!	!	!	!	!	!	!	!	!	!	!	!	!	!
8A\Lyy	8 6	.	4f#/yy	.	4a/yy	4A\yy	.	.	2A\yy	.	(4f#\yy	.	(4a\yy	.	.	8GG/L	8a/Lyy 8A/yy	4a/yy	4f#\yy	4ff#X\yy	4aa\yy
8A\yy	.	.	.	.	.	.	.	.	.	.	.	.	.	.	.	16GG/L	16a/Lyy 16A/yy	.	.	.	.
.	.	.	.	.	.	.	.	.	.	.	.	.	.	.	.	16GG/JJ	16a/JJyy 16A/yy	.	.	.	.
8AA\yy	.	.	4e/yy	.	4g/yy	4AA/yy	.	.	.	.	4e\)yy	.	4g\)yy	.	.	8GG/L	8a/Lyy 8A/yy	4g/yy	4e\yy	4ee\yy	4gg\yy
8AA\Jyy	7 5	.	.	.	.	.	.	.	.	.	.	.	.	.	.	8GG/J	8a/Jyy 8A/yy	.	.	.	.
=96	=96	=96	=96	=96	=96	=96	=96	=96	=96	=96	=96	=96	=96	=96	=96	=96	=96	=96	=96	=96	=96
4D\yy	.	.	4d/yy	.	4f#/yy	4D/yy	.	.	4A\yy	.	4d\yy	.	4f#/yy	.	.	4C/	4dd/yy 4d/yy	4f#/yy	4d\yy	4dd\yy	4ff#\yy
4ryy	.	.	4ryy	.	4ryy	4ryy	.	.	4ryy	.	4ryy	.	4ryy	.	.	4r	4ryy	4ryy	4ryy	4ryy	4ryy
*	*	*	*	*	*	*	*	*	*	*	*	*	*	*	*	*	*	*v	*v	*	*
=97	=97	=97	=97	=97	=97	=97	=97	=97	=97	=97	=97	=97	=97	=97	=97	=97	=97	=97	=97	=97
!	!	!	!	!	!	!LO:TX:a:t=3	!	!	!LO:TX:a:t=2	!	!LO:TX:a:t=2	!	!LO:TX:a:t=2	!	!	!LO:TX:a:t=3.	!	!LO:TX:a:t=3.	!	!
!LO:N:vis=0	!	!	!	!	!	!LO:N:vis=0	!	!	!LO:N:vis=0	!	!LO:N:vis=0	!	!LO:N:vis=0	!	!	!LO:N:vis=0	!	!LO:N:vis=0	!	!
1ryy	.	.	4ryy	.	4ryy	1ryy	.	.	1ryy	.	1ryy	.	1ryy	.	.	1r	8a/Lyy 8A/yy	1ryy	4ryy	4ryy
.	.	.	.	.	.	.	.	.	.	.	.	.	.	.	.	.	16a/Lyy 16A/yy	.	.	.
.	.	.	.	.	.	.	.	.	.	.	.	.	.	.	.	.	16a/JJyy 16A/yy	.	.	.
.	.	.	8ryy	.	8ryy	.	.	.	.	.	.	.	.	.	.	.	4a/yy 4A/yy	.	8ryy	8ryy
.	.	.	8a/yy	.	8dd\yy	.	.	.	.	.	.	.	.	.	.	.	.	.	8dd\yy	8ff#\yy
!	!	!	!	!	!LO:LB:g=original	!	!	!	!	!	!	!	!	!	!	!	!	!	!	!
=98	=98	=98	=98	=98	=98	=98	=98	=98	=98	=98	=98	=98	=98	=98	=98	=98	=98	=98	=98	=98
!	!	!	!	!	!	!	!	!	!	!	!	!	!	!	!	!	!LO:TX:a:t=1.	!	!	!
.	.	.	8.e/Lyy	.	8.cc#\Lyy|	.	.	.	.	.	.	.	.	.	.	.	2ryy	.	(8.cc#X\Lyy	(8.ee\Lyy|
.	.	.	32f#/LLyy	.	(32dd\LLyy	.	.	.	.	.	.	.	.	.	.	.	.	.	32dd\LLyy	32ff#\LLyy
.	.	.	32g/JJJyy	.	32ee\JJJ)yy	.	.	.	.	.	.	.	.	.	.	.	.	.	32ee\JJJ)yy	32gg\JJJ)yy
.	.	.	4f#/yy	.	4dd\yy	.	.	.	.	.	.	.	.	.	.	.	.	.	8dd\yy|	8ff#\yy|
.	.	.	.	.	.	.	.	.	.	.	.	.	.	.	.	.	.	.	8ryy	8ryy
!	!	!	!LO:LB:g=original	!	!	!	!	!	!	!	!	!	!	!	!	!	!	!	!LO:LB:g=original	!
=99	=99	=99	=99	=99	=99	=99	=99	=99	=99	=99	=99	=99	=99	=99	=99	=99	=99	=99	=99	=99
2ryy	.	.	4ryy	.	4ryy	2ryy	.	.	4ryy	.	4ryy	.	4ryy	.	.	2r	8a/Lyy 8A/yy	2ryy	4ryy	4ryy
.	.	.	.	.	.	.	.	.	.	.	.	.	.	.	.	.	16a/Lyy 16A/yy	.	.	.
.	.	.	.	.	.	.	.	.	.	.	.	.	.	.	.	.	16a/JJyy 16A/yy	.	.	.
.	.	.	8ryy	.	8ryy	.	.	.	8ryy	.	8ryy	.	8ryy	.	.	.	4a/yy 4A/yy	.	8ryy	8ryy
*	*	*	*	*	*	*	*	*	*	*	*	*ij	*	*	*	*	*	*	*	*
!	!	!	!	!	!	!	!	!	!	!	!LO:SIC:s:=:v:8a	!	!	!	!	!	!	!	!	!
.	.	.	8d/yy	.	8ff#\yy	.	.	.	8d\yy	.	8cc#\yy	.	8ff#\yy	.	.	.	.	.	8dd\yy|	8ff#\yy|
=100	=100	=100	=100	=100	=100	=100	=100	=100	=100	=100	=100	=100	=100	=100	=100	=100	=100	=100	=100	=100
*	*	*	*	*	*	*	*	*	*	*	*	*	*	*	*	*	*^	*^	*	*
4ryy	.	.	8.c#/Lyy	.	8.ee\Lyy|	4ryy	.	.	(8.c#\Lyy	.	4a\yy	.	8.ee\Lyy	.	.	4r	4ryy	4ryy	4ryy	4ryy	8.cc#X\Lyy	(8.ee\Lyy
.	.	.	32d/LLyy	.	(32ff#\LLyy	.	.	.	32d\LL)yy	.	.	.	32ff#\LLyy	.	.	.	.	.	.	.	(32dd\LLyy	32ff#\LLyy
.	.	.	32e/JJJyy	.	32gg\JJJ)yy	.	.	.	32e\JJJyy	.	.	.	32gg\JJJyy	.	.	.	.	.	.	.	32ee\JJJ)yy	32gg\JJJ)yy
!	!	!	!LO:TX:a:t=P:problem:mixed beam	!	!	!	!	!	!	!	!	!	!	!	!	!	!	!	!	!	!	!
8ryy	.	.	8d/Lyy	.	8ff#\Lyy	8ryy	.	.	8d\yy	.	8a\yy	.	8ff#\yy	.	.	8r	8ryy	8ryy	8ryy	8ryy	8dd\Lyy|	8ff#\Lyy|
!	!	!	!	!	!	!	!	!	!	!	!	!	!	!	!	!	!LO:SIC:n=1 s=8ee t=lub cc:v	!	!	!	!	!
*	*	*	*	*	*	*	*ij	*	*	*ij	*	*	*	*ij	*	*	*	*	*	*	*	*
8D\yy	.	.	8ff#\Jyy	.	8ddd\Jyy	8D\yy	.	.	8A\yy	.	8f#\yy	.	8dd\yy	.	.	8C/	8ee/yy	8a\yy	8f#/yy	8d\yy	8dd\Jyy|	8ff#\Jyy|
=101	=101	=101	=101	=101	=101	=101	=101	=101	=101	=101	=101	=101	=101	=101	=101	=101	=101	=101	=101	=101	=101	=101
!LO:TX:a:t=P:problem:mixed beam	!	!	!	!	!	!	!	!	!	!	!	!	!	!	!	!	!	!	!	!	!	!
8A\Lyy	4 6	.	8ff#\Lyy	.	8ddd\Lyy	8A\yy	.	.	8A\yy	.	8f#\yy	.	8dd\yy	.	.	8C/L	8ff#/Lyy	8dd\Lyy	8f#/Lyy	8d\Lyy	8dd\Lyy|	8ff#\Lyy
8AA/Jyy	3 5	.	8ee\Jyy	.	8ccc#\Jyy	8AA/yy	.	.	8A\yy	.	8e\yy	.	8cc#\yy	.	.	8GG/J	8ee/Jyy	8a\Jyy	8e/Jyy	8A\Jyy	8cc#X\Jyy|	8ee\Jyy
*	*	*	*	*	*	*	*	*	*	*	*	*	*	*Xij	*	*	*	*	*	*	*	*
4ryy	.	.	4ryy	.	4ryy	4ryy	.	.	4ryy	.	4ryy	.	4ryy	.	.	4r	4ryy	4ryy	4ryy	4ryy	4ryy	4ryy
*	*	*	*	*	*	*	*	*	*	*	*	*	*	*	*	*	*v	*v	*	*	*	*
*	*	*	*	*	*	*	*	*	*	*	*	*	*	*	*	*	*	*v	*v	*	*
!	!	!	!	!	!	!	!	!	!	!	!	!	!	!	!	!	!	!	!	!LO:LB:g=original
=102	=102	=102	=102	=102	=102	=102	=102	=102	=102	=102	=102	=102	=102	=102	=102	=102	=102	=102	=102	=102
!	!	!	!	!	!	!LO:TX:a:t=3	!	!	!LO:TX:a:t=2	!	!LO:TX:a:t=2	!	!LO:TX:a:t=2	!	!	!LO:TX:a:t=3.	!	!LO:TX:b:t=3.	!	!
!LO:N:vis=0	!	!	!	!	!	!LO:N:vis=0	!	!	!LO:N:vis=0	!	!LO:N:vis=0	!	!LO:N:vis=0	!	!	!LO:N:vis=0	!	!LO:N:vis=0	!	!
1ryy	.	.	4ryy	.	4ryy	1ryy	.	.	1ryy	.	1ryy	.	1ryy	.	.	1r	8a/Lyy 8A/yy	1ryy	4ryy	4ryy
.	.	.	.	.	.	.	.	.	.	.	.	.	.	.	.	.	16a/yyL 16A/yy	.	.	.
.	.	.	.	.	.	.	.	.	.	.	.	.	.	.	.	.	16a/JJyy 16A/yy	.	.	.
.	.	.	8ryy	.	8ryy	.	.	.	.	.	.	.	.	.	.	.	4a/yy 4A/yy	.	8ryy	8ryy
!	!	!	!	!LO:DY:a	!	!	!	!	!	!	!	!	!	!	!	!	!	!	!	!
.	.	.	8f#/yy	p	8dd\yy	.	.	.	.	.	.	.	.	.	.	.	.	.	8dd\yy	8ff#\yy|
=103	=103	=103	=103	=103	=103	=103	=103	=103	=103	=103	=103	=103	=103	=103	=103	=103	=103	=103	=103	=103
!	!	!	!	!	!	!	!	!	!	!	!	!	!	!	!	!	!LO:TX:a:t=1.	!	!	!
.	.	.	8.e/Lyy	.	8.cc#\Lyy|	.	.	.	.	.	.	.	.	.	.	.	2ryy	.	(8.cc#X\Lyy	8.eeM\Lyy|
.	.	.	32f#/LLyy	.	(32dd\LLyy	.	.	.	.	.	.	.	.	.	.	.	.	.	32dd\LLyy	32ff#\LLyy
.	.	.	32g/JJJyy	.	32ee\JJJ)yy	.	.	.	.	.	.	.	.	.	.	.	.	.	32ee\JJJ)yy	32gg\JJJyy
.	.	.	4f#/yy	.	4dd\yy	.	.	.	.	.	.	.	.	.	.	.	.	.	8dd\yy	4ff#\yy
.	.	.	.	.	.	.	.	.	.	.	.	.	.	.	.	.	.	.	8ryy	.
!	!	!	!	!	!	!	!	!	!LO:LB:g=original	!	!	!	!	!	!	!	!	!	!	!
=104	=104	=104	=104	=104	=104	=104	=104	=104	=104	=104	=104	=104	=104	=104	=104	=104	=104	=104	=104	=104
2ryy	.	.	4ryy	.	4ryy	2ryy	.	.	4ryy	.	4ryy	.	4ryy	.	.	2r	8a/Lyy 8A/yy	2ryy	4ryy	4ryy
.	.	.	.	.	.	.	.	.	.	.	.	.	.	.	.	.	16a/Lyy 16A/yy	.	.	.
.	.	.	.	.	.	.	.	.	.	.	.	.	.	.	.	.	16a/JJyy 16A/yy	.	.	.
.	.	.	8ryy	.	8ryy	.	.	.	8ryy	.	8ryy	.	8ryy	.	.	.	4a/yy 4A/yy	.	8ryy	8ryy
.	.	.	8d/yy	.	8ff#\yy	.	.	.	8d\yy	.	8a\yy	.	8ff#\yy	.	.	.	.	.	8dd\yy|	8ff#\yy|
!	!	!	!	!	!	!	!	!	!	!	!	!	!	!	!	!	!LO:LB:g=original	!LO:LB:g=original	!	!
=105	=105	=105	=105	=105	=105	=105	=105	=105	=105	=105	=105	=105	=105	=105	=105	=105	=105	=105	=105	=105
*	*	*	*	*	*	*	*	*	*	*	*	*	*	*	*	*	*	*^	*	*
4ryy	.	.	8.c#/Lyy	.	8.ee\Lyy|	4ryy	.	.	(8.c#\Lyy	.	4a\yy	.	8.ee\Lyy	.	.	4r	4ryy	4ryy	4ryy	(8.cc#X\Lyy	(8.ee\Lyy
.	.	.	32d/LLyy	.	(32ff#\LLyy	.	.	.	32d\LLyy	.	.	.	32ff#\LLyy	.	.	.	.	.	.	32dd\LLyy	32ff#\LLyy
.	.	.	32e/JJJyy	.	32gg\JJJ)yy	.	.	.	32e\JJJ)yy	.	.	.	32gg\JJJyy	.	.	.	.	.	.	32ee\JJJ)yy	32gg\JJJ)yy
!	!	!	!LO:TX:a:t=P:problem:mixed beam	!	!	!	!	!	!	!	!	!	!	!	!	!	!	!	!	!	!
8ryy	.	.	8d/Lyy	.	8ff#\Lyy	8ryy	.	.	8d\yy	.	8a\yy	.	8ff#\yy	.	.	8r	8ryy	8ryy	8ryy	8dd\Lyy|	8ff#\Lyy|
*	*	*	*	*	*	*	*	*	*	*	*	*	*	*ij	*	*	*	*	*	*	*
8D\yy	.	.	8ff#\Jyy	.	8ddd\Jyy	8D\yy	.	.	8A\yy	.	8f#\yy	.	8dd\yy	.	.	8C/	8dd/yy 8d/yy	8f#/yy	8d\yy	8dd\Jyy|	8ff#\Jyy|
=106	=106	=106	=106	=106	=106	=106	=106	=106	=106	=106	=106	=106	=106	=106	=106	=106	=106	=106	=106	=106	=106
!LO:TX:a:t=P:problem:mixed beam	!	!	!	!	!	!	!	!	!	!	!	!	!	!	!	!	!	!	!	!	!
8A\Lyy	4 6	.	8ff#\Lyy	.	8ddd\Lyy	8A\yy	.	.	8A\yy	.	8f#\yy	.	8dd\yy	.	.	8C/L	8dd/Lyy 8d/yy	8f#/Lyy	8d\Lyy	8dd\Lyy|	(8ff#\Lyy
8AA/Jyy	3 5	.	8ee\Jyy	.	8ccc#\Jyy	8AA/yy	.	.	8A\yy	.	8e\yy	.	8cc#\yy	.	.	8GG/J	8a/Jyy 8A/yy	8e/Jyy	8A\Jyy	8cc#X\Jyy|	8ee\J)yy
*	*	*	*	*	*	*	*Xij	*	*	*Xij	*	*Xij	*	*Xij	*	*	*	*	*	*	*
8ryy	.	.	16d/LLyy	.	(16d/LLyy	8ryy	.	.	8ryy	.	8ryy	.	8ryy	.	.	4r	4ryy	4ryy	4ryy	4ryy	8ryy
.	.	.	16f#/yy	.	16f#/yy	.	.	.	.	.	.	.	.	.	.	.	.	.	.	.	.
8F#t\myy	6	.	16a/yy	.	16a/yy	8F#\yy	.	.	8d\yy	.	8f#\yy	.	8a\yy	.	.	.	.	.	.	.	8aa\yy|
.	.	.	16ccn/JJyy	.	16ccn/JJ)yy	.	.	.	.	.	.	.	.	.	.	.	.	.	.	.	.
*	*	*	*	*	*	*	*	*	*	*	*	*	*	*	*	*	*	*v	*v	*	*
!	!	!	!	!	!LO:LB:g=original	!	!	!	!	!	!	!	!	!	!	!	!	!	!	!
=107	=107	=107	=107	=107	=107	=107	=107	=107	=107	=107	=107	=107	=107	=107	=107	=107	=107	=107	=107	=107
*	*	*	*	*	*tremolo	*	*	*	*	*	*	*	*	*	*	*	*	*	*	*
!	!	!	!	!	!	!	!	!	!	!	!	!	!	!	!	!LO:TX:a:t=6.	!LO:TX:a:t=6.	!LO:TX:a:t=6.	!	!
!	!	!	!	!	!	!	!	!	!	!	!	!	!	!	!	!LO:N:vis=00	!LO:N:vis=00	!LO:N:vis=00	!	!
8G\Lyy	3_	.	8b\Lyy	.	16b\LLyy	8G\Lyy	.	.	(<2d\yy	.	2g\yy	.	2b\yy	.	.	0r	0ryy	0ryy	2gg\yy	2bb\yy
.	.	.	.	.	16b\yy	.	.	.	.	.	.	.	.	.	.	.	.	.	.	.
8F#\yy	.	.	16dd\Lyy	.	16b\yy	8F#\yy	.	.	.	.	.	.	.	.	.	.	.	.	.	.
.	.	.	16cc#X\JJyy	.	16b\yy	.	.	.	.	.	.	.	.	.	.	.	.	.	.	.
8E\yy	.	.	16b/LLyy	.	16b\yy	8E\yy	.	.	.	.	.	.	.	.	.	.	.	.	.	.
.	.	.	16a/yy	.	16b\yy	.	.	.	.	.	.	.	.	.	.	.	.	.	.	.
8D\Jyy	.	.	16g/yy	.	16b\yy	8D\Jyy	.	.	.	.	.	.	.	.	.	.	.	.	.	.
.	.	.	16f#/JJyy	.	16b\JJyy	.	.	.	.	.	.	.	.	.	.	.	.	.	.	.
!LO:LB:g=original	!	!	!	!	!	!LO:LB:g=original	!	!	!	!	!	!	!	!	!	!	!	!	!	!
=108	=108	=108	=108	=108	=108	=108	=108	=108	=108	=108	=108	=108	=108	=108	=108	=108	=108	=108	=108	=108
4C#/yy	7	.	16e/LLyy	.	(16b\LLyy	2C#/yy	.	.	2e\)yy	.	2b\yy	.	2gg\yy	.	.	.	.	.	2gg\yy	2bb\yy
.	.	.	16e/yy	.	16ee\yy	.	.	.	.	.	.	.	.	.	.	.	.	.	.	.
.	.	.	16e/yy	.	16gg\yy	.	.	.	.	.	.	.	.	.	.	.	.	.	.	.
.	.	.	16e/yy	.	16ff#\JJ)yy	.	.	.	.	.	.	.	.	.	.	.	.	.	.	.
8ryy	.	.	16e/yy	.	(16ee\LLyy	.	.	.	.	.	.	.	.	.	.	.	.	.	.	.
.	.	.	16e/yy	.	16dd\yy	.	.	.	.	.	.	.	.	.	.	.	.	.	.	.
8C#/yy	.	.	16e/yy	.	16cc#X\yy	.	.	.	.	.	.	.	.	.	.	.	.	.	.	.
.	.	.	16e/JJyy	.	16b\JJ)yy	.	.	.	.	.	.	.	.	.	.	.	.	.	.	.
!	!	!	!LO:LB:g=original	!	!	!	!	!	!	!	!	!	!	!	!	!	!	!	!	!
=109	=109	=109	=109	=109	=109	=109	=109	=109	=109	=109	=109	=109	=109	=109	=109	=109	=109	=109	=109	=109
8F#\Lyy	7_	.	16a/LLyy|	.	16a/LLyy	8F#\Lyy	.	.	(<2c#\yy	.	2a\yy	.	2gg\yy	.	.	.	.	.	2ff#\yy	2aa\yy
.	.	.	16b/yy	.	16a/yy	.	.	.	.	.	.	.	.	.	.	.	.	.	.	.
8E\yy	.	.	16cc#/yy	.	16a/yy	8E\yy	.	.	.	.	.	.	.	.	.	.	.	.	.	.
.	.	.	16b/JJyy	.	16a/yy	.	.	.	.	.	.	.	.	.	.	.	.	.	.	.
8D\yy	.	.	16a/LLyy	.	16a/yy	8D\yy	.	.	.	.	.	.	.	.	.	.	.	.	.	.
.	.	.	16g/yy	.	16a/yy	.	.	.	.	.	.	.	.	.	.	.	.	.	.	.
8C#\Jyy	.	.	16f#/yy	.	16a/yy	8C#\Jyy	.	.	.	.	.	.	.	.	.	.	.	.	.	.
.	.	.	16e/JJyy	.	16a/JJyy	.	.	.	.	.	.	.	.	.	.	.	.	.	.	.
=110	=110	=110	=110	=110	=110	=110	=110	=110	=110	=110	=110	=110	=110	=110	=110	=110	=110	=110	=110	=110
4BB/yy	7_	.	16d/LLyy	.	(16a\LLyy	2BB/yy	.	.	2d\)yy	.	2a\yy	.	2ff#\yy	.	.	.	.	.	2ff#\yy	2aa\yy
.	.	.	16d/yy	.	16dd\yy	.	.	.	.	.	.	.	.	.	.	.	.	.	.	.
.	.	.	16d/yy	.	16ff#\yy	.	.	.	.	.	.	.	.	.	.	.	.	.	.	.
.	.	.	16d/yy	.	16ee\JJ)yy	.	.	.	.	.	.	.	.	.	.	.	.	.	.	.
8ryy	.	.	16d/yy	.	(16dd\LLyy	.	.	.	.	.	.	.	.	.	.	.	.	.	.	.
.	.	.	16d/yy	.	16cc#\yy	.	.	.	.	.	.	.	.	.	.	.	.	.	.	.
8BB/yy	.	.	16d/yy	.	16b\yy	.	.	.	.	.	.	.	.	.	.	.	.	.	.	.
.	.	.	16d/JJyy	.	16a\JJ)yy	.	.	.	.	.	.	.	.	.	.	.	.	.	.	.
!	!	!	!	!	!	!	!	!	!	!	!	!	!	!	!	!	!	!	!LO:LB:g=original	!
=111	=111	=111	=111	=111	=111	=111	=111	=111	=111	=111	=111	=111	=111	=111	=111	=111	=111	=111	=111	=111
!	!	!	!	!	!	!	!	!	!	!	!	!	!	!	!	!LO:N:vis=0	!LO:N:vis=0	!LO:N:vis=0	!	!
8E\Lyy	7_	.	16g/LLyy	.	16g/LLyy	8E\Lyy	.	.	2B\yy	.	2g\yy	.	2ff#\yy	.	.	1r	1ryy	1ryy	2ee\yy	2gg\yy
.	.	.	16a/yy	.	16g/yy	.	.	.	.	.	.	.	.	.	.	.	.	.	.	.
8D\yy	.	.	16b/yy	.	16g/yy	8D\yy	.	.	.	.	.	.	.	.	.	.	.	.	.	.
.	.	.	16a/JJyy	.	16g/yy	.	.	.	.	.	.	.	.	.	.	.	.	.	.	.
8C#\yy	.	.	16g/LLyy	.	16g/yy	8C#\yy	.	.	.	.	.	.	.	.	.	.	.	.	.	.
.	.	.	16f#/yy	.	16g/yy	.	.	.	.	.	.	.	.	.	.	.	.	.	.	.
8BB\Jyy	.	.	16e/yy	.	16g/yy	8BB\Jyy	.	.	.	.	.	.	.	.	.	.	.	.	.	.
.	.	.	16d/JJyy	.	16g/JJyy	.	.	.	.	.	.	.	.	.	.	.	.	.	.	.
*	*	*	*	*	*Xtremolo	*	*	*	*	*	*	*	*	*	*	*	*	*	*	*
=112	=112	=112	=112	=112	=112	=112	=112	=112	=112	=112	=112	=112	=112	=112	=112	=112	=112	=112	=112	=112
!	!	!	!	!	!LO:TX:a:t=P:problem:mixed beam	!	!	!	!	!	!	!	!	!	!	!	!	!	!	!
8AA/Lyy	7_	.	16c#/LLyy	.	(8g/Lyy	8AA/Lyy	.	.	2c#\yy	.	2g\yy	.	2ee\yy	.	.	.	.	.	2ee\yy	2gg\yy
.	.	.	16c#/yy	.	.	.	.	.	.	.	.	.	.	.	.	.	.	.	.	.
8AA/yy	.	.	16c#/yy	.	16ee\Lyy	8AA/yy	.	.	.	.	.	.	.	.	.	.	.	.	.	.
.	.	.	16c#/yy	.	16dd\JJ)yy	.	.	.	.	.	.	.	.	.	.	.	.	.	.	.
8BB/yy	.	.	16c#/yy	.	(16cc#\LLyy	8BB/yy	.	.	.	.	.	.	.	.	.	.	.	.	.	.
.	.	.	16c#/yy	.	16b\yy	.	.	.	.	.	.	.	.	.	.	.	.	.	.	.
8C#/Jyy	.	.	16c#/yy	.	16a\yy	8C#/Jyy	.	.	.	.	.	.	.	.	.	.	.	.	.	.
.	.	.	16c#/JJyy	.	16g\JJ)yy	.	.	.	.	.	.	.	.	.	.	.	.	.	.	.
*	*	*	*Xtremolo	*	*	*	*	*	*	*	*	*	*	*	*	*	*	*	*	*
!	!	!	!	!	!	!	!	!	!	!	!	!	!	!	!	!LO:LB:g=original	!	!	!	!
=113	=113	=113	=113	=113	=113	=113	=113	=113	=113	=113	=113	=113	=113	=113	=113	=113	=113	=113	=113	=113
!	!	!	!LO:TX:a:t=P:problem:mixed beam	!	!LO:TX:a:t=P:problem:mixed beam	!	!	!	!	!	!	!	!	!	!	!	!	!	!LO:TX:a:t=P:problem:mixed beam	!
2D/yy 2DD/yy	.	.	8d/Lyy	.	8f#/Lyy	[<2D\yy	.	.	(8d\Lyy	.	8f#\Lyy	.	2dd\yy	.	.	4C/	4dd/yy 4d/yy	4d/yy 4D/yy	8dd\Lyy	8ff#\Lyy|
.	.	.	8bb\yy	.	16ddd\Lyy	.	.	.	8B\yy	.	8dd\yy	.	.	.	.	.	.	.	8d/yy|	8dd'\yy
.	.	.	.	.	16dd\JJyy	.	.	.	.	.	.	.	.	.	.	.	.	.	.	.
.	.	.	8aa\yy	.	16ccc#\LLyy	.	.	.	8A\yy	.	8cc#\yy	.	.	.	.	4r	4ryy	4ryy	8d/yy|	8dd'\yy
.	.	.	.	.	16dd\yy	.	.	.	.	.	.	.	.	.	.	.	.	.	.	.
.	.	.	8gg\Jyy	.	16bb\yy	.	.	.	8G\J)yy	.	8b\Jyy	.	.	.	.	.	.	.	8d/Jyy|	8dd'\Jyy
.	.	.	.	.	16dd\JJyy	.	.	.	.	.	.	.	.	.	.	.	.	.	.	.
!	!	!	!	!	!	!	!	!	!LO:LB:g=original	!	!LO:LB:g=original	!	!	!	!	!	!	!	!	!
=114	=114	=114	=114	=114	=114	=114	=114	=114	=114	=114	=114	=114	=114	=114	=114	=114	=114	=114	=114	=114
*	*	*	*	*	*	*	*	*	*	*	*	*	*	*	*	*	*	*	*tremolo	*tremolo
!	!	!	!	!	!	!	!	!	!	!	!	!	!	!	!	!	!	!	!LO:SIC:o:s:=:v:4 kreski artykulacyjne	!LO:SIC:o:s:=:v:4 kreski artykulacyjne
2D/yy 2DD/yy	.	.	8ff#\Lyy	.	16aa\LLyy	2D\_<yy	.	.	(8F#/Lyy	.	8a\Lyy	.	2dd\yy	.	.	4C/	4dd/yy 4d/yy	4d/yy 4D/yy	8d/Lyy	8dd\Lyy
.	.	.	.	.	16dd\yy	.	.	.	.	.	.	.	.	.	.	.	.	.	.	.
.	.	.	8gg\yy	.	16bb\yy	.	.	.	8G/yy	.	8b\yy	.	.	.	.	.	.	.	8d/yy	8dd\yy
.	.	.	.	.	16dd\JJyy	.	.	.	.	.	.	.	.	.	.	.	.	.	.	.
.	.	.	8ff#\yy	.	16aa\LLyy	.	.	.	8F#/yy	.	8a\yy	.	.	.	.	4r	4ryy	4ryy	8d/yy	8dd\yy
.	.	.	.	.	16dd\yy	.	.	.	.	.	.	.	.	.	.	.	.	.	.	.
.	.	.	8ee\Jyy	.	16gg\yy	.	.	.	8E/J)yy	.	8g\Jyy	.	.	.	.	.	.	.	8d/Jyy	8dd\Jyy
.	.	.	.	.	16dd\JJyy	.	.	.	.	.	.	.	.	.	.	.	.	.	.	.
=115	=115	=115	=115	=115	=115	=115	=115	=115	=115	=115	=115	=115	=115	=115	=115	=115	=115	=115	=115	=115
!	!	!	!	!	!LO:SIC:s:=:v:8ff#	!	!	!	!LO:TX:a:t=P:problem:mixed beam	!	!	!	!	!	!	!	!	!	!LO:SIC:o:s:=:v:4 kreski artykulacyjne	!LO:SIC:o:s:=:v:4 kreski artykulacyjne
2D/yy 2DD/yy	.	.	8dd\Lyy	.	8ee\Lyy	2D\_<yy	.	.	(8D/Lyy	.	8f#\Lyy	.	2dd\yy	.	.	4C/	4dd/yy 4d/yy	4d/yy 4D/yy	8d/Lyy	8dd\Lyy
.	.	.	8dd\yy	.	8bb\yy	.	.	.	8d\yy	.	8b\yy	.	.	.	.	.	.	.	8d/yy	8dd\yy
.	.	.	8cc#\yy	.	8aa\yy	.	.	.	8c#\yy	.	8a\yy	.	.	.	.	4r	4ryy	4ryy	8d/yy	8dd\yy
.	.	.	8b\Jyy	.	8gg\Jyy	.	.	.	8B\J)yy	.	8g\Jyy	.	.	.	.	.	.	.	8d/Jyy	8dd\Jyy
!	!	!	!	!	!LO:LB:g=original	!	!	!	!	!	!	!	!	!	!	!	!	!	!	!
=116	=116	=116	=116	=116	=116	=116	=116	=116	=116	=116	=116	=116	=116	=116	=116	=116	=116	=116	=116	=116
!	!	!	!	!	!	!	!	!	!	!	!	!	!	!	!	!	!	!	!LO:SIC:o:s:=:v:4 kreski artykulacyjne	!LO:SIC:o:s:=:v:4 kreski artykulacyjne
2D/yy 2DD/yy	.	.	8a/Lyy	.	8ff#\Lyy	2D\_<yy	.	.	(8A\Lyy	.	8f#\Lyy	.	2dd\yy	.	.	4C/	4dd/yy 4d/yy	4d/yy 4D/yy	8d/Lyy	8dd\Lyy
.	.	.	8b/yy	.	8gg\yy	.	.	.	8B\yy	.	8g\yy	.	.	.	.	.	.	.	8d/yy	8dd\yy
.	.	.	8a/yy	.	8ff#\yy	.	.	.	8A\yy	.	8f#\yy	.	.	.	.	4r	4ryy	4ryy	8d/yy	8dd\yy
.	.	.	8g/Jyy	.	8ee\Jyy	.	.	.	8G\J)yy	.	8e\Jyy	.	.	.	.	.	.	.	8d/Jyy	8dd\Jyy
*	*	*	*	*	*	*	*	*	*	*	*	*	*	*	*	*	*	*	*Xtremolo	*Xtremolo
=117	=117	=117	=117	=117	=117	=117	=117	=117	=117	=117	=117	=117	=117	=117	=117	=117	=117	=117	=117	=117
*^	*	*	*	*	*	*	*	*	*	*	*	*	*	*	*	*	*	*^	*	*
8D/yy 8DD/yy	4ryy	8_	.	8f#/Lyy	.	8dd\Lyy|	2D\_<yy	.	.	(4F#/yy	.	8f#\Lyy	.	8dd\Lyy	.	.	8C/	4dd/yy 4d/yy	8d/yy	8F#\yy	(8dd\Lyy|	8ff#X\Lyy|
8ryy	.	.	.	16g/Lyy	.	(16ee\Lyy	.	.	.	.	.	16g\Lyy	.	16ee\Lyy	.	.	8r	.	8ryy	8ryy	16ee\Lyy	(16gg\Lyy
.	.	.	.	16a/JJyy	.	16ff#\JJ)yy	.	.	.	.	.	16a\JJyy	.	16ff#\JJyy	.	.	.	.	.	.	16ff#X\JJ)yy	16aa\JJ)yy
8D\yy	8DD/yy	.	.	8f#/Lyy	.	8dd\Lyy|	.	.	.	4d\)yy	.	8f#\Lyy	.	8dd\Lyy	.	.	8C/	4ryy	8d/yy	8F#\yy	(8dd\Lyy|	8ff#\Lyy|
8ryy	8ryy	.	.	16g/Lyy	.	(16ee\Lyy	.	.	.	.	.	16g\Lyy	.	16ee\Lyy	.	.	8r	.	8ryy	8ryy	16ee\Lyy	(16gg\Lyy
.	.	.	.	16a/JJyy	.	16ff#\JJ)yy	.	.	.	.	.	16a\JJyy	.	16ff#\JJyy	.	.	.	.	.	.	16ff#X\JJ)yy	16aa\JJ)yy
*	*	*	*	*	*	*	*	*	*	*	*	*	*	*	*	*	*	*	*v	*v	*	*
*v	*v	*	*	*	*	*	*	*	*	*	*	*	*	*	*	*	*	*	*	*	*
=118	=118	=118	=118	=118	=118	=118	=118	=118	=118	=118	=118	=118	=118	=118	=118	=118	=118	=118	=118	=118
*	*	*	*	*	*	*	*	*	*	*	*	*	*	*	*	*	*	*^	*	*
8D/yy 8DDyy/	_	.	4f#/yy	.	4dd\yy	4D\]yy	.	.	4d\yy	.	4f#\yy	.	4dd\yy	.	.	4C/	4dd/yy 4d/yy	4d/yy	4F#\yy	4dd\yy	4ff#\yy|
8ryy	.	.	.	.	.	.	.	.	.	.	.	.	.	.	.	.	.	.	.	.	.
4ryy	.	.	4ryy	.	4ryy	4ryy	.	.	4ryy	.	4ryy	.	4ryy	.	.	4r	4ryy	4rvyy	4ryy	4ryy	4ryy
*	*	*	*	*	*	*	*	*	*	*	*	*	*	*	*	*	*	*v	*v	*	*
==	==	==	==	==	==	==	==	==	==	==	==	==	==	==	==	==	==	==	==	==
*-	*-	*-	*-	*-	*-	*-	*-	*-	*-	*-	*-	*-	*-	*-	*-	*-	*-	*-	*-	*-
!!!system-decoration: [(s1,s2)][(s3,s4)][(s5)][(s6,s7,s8,s9)][(s10,s11)]s12
!!!EED: Leszek Kubiak
!!!EST: 2020-12-30
!!!AIN: 1 alto 2 clars 1 cor 2 empty 1 organ 1 tenor 1 timpa 2 violn 1 vox
!!!ENC: Andrzej Gręziak
!!!END: 2020-06-28
!!!RDF**kern: | = vertical stroke
